!!!!SEGMENT: pl-cz--iii-564--001-006_raszek-waclaw--missa-pastoralis-d-sanctus.krn
!!!cenid: 18xx:990
!!!COM: Raszek, Wacław
!!!COM-rismID: pe30020314
!!!CDT: <1848->1848
!!!CNT:
!!!OPR: Missa Pastoralis D
!!!OTL: Sanctus
!!!OMV: 006
!!!PDT:
!!!AGN: Sacred; Mass
!!!SMS-siglum: PL-CZ
!!!SMS-shelfmark: III-564
!!!SMS-shelfwork: 001-006 M
!!!SMS-variant:
!!!SMS-altvar:
!!!NIFC-rismSourceID: 300001047
!!!NIFC-rismChildID: 300001047
!!!NIFC-islandoraID: pl-cz:39183
!!!URL-pdf-islandora: https://repozytorium.nifc.pl/islandora/object/pl-cz%3A39183/datastream/PDF/view
!!!URL-scan: https://polish.musicsources.pl/pl/lokalizacje/galeria/rekopisy/6952/1 @EN{Scan on Polish Music Sources Website} @PL{Skany w portalu Dziedzictwo Muzyki Polskiej w otwartym dostępie}
!!!IIIF:
!!!ONB-nifc: UWAGA: części Mszy: Kyrie, Gloria, Credo, Et incarnatus, Et resurrexit, Sanctus, Benedictus, Agnus Dei, Dona nobis
!!!AIN: 1 alto 1 bass 2 clars 1 clrno 2 cor 2 flt 2 oboe 1 organ 1 soprn 1 tenor 2 violn
!!!key: D
**kern	**fba	**dynam	**kern	**dynam	**kern	**dynam	**kern	**text	**dynam	**kern	**kern	**text	**dynam	**kern	**text	**dynam	**kern	**kern	**dynam	**kern	**dynam	**kern	**dynam	**kern	**dynam	**kern	**dynam	**kern	**dynam
*	*	*	*group4	*	*group4	*	*group3	*	*	*group3	*group3	*	*	*group3	*	*	*group2	*group2	*	*group2	*	*group1	*	*group1	*	*group1	*	*group1	*
*part14	*part14	*part14	*part13	*part13	*part12	*part12	*part11	*part11	*part11	*part10	*part9	*part9	*part9	*part8	*part8	*part8	*part7	*part6	*part6	*part5	*part5	*part4	*part4	*part3	*part3	*part2	*part2	*part1	*part1
*staff14	*	*	*staff13	*	*staff12	*	*staff11	*staff11	*	*staff10	*staff9	*staff9	*	*staff8	*staff8	*	*staff7	*staff6	*	*staff5	*	*staff4	*	*staff3	*	*staff2	*	*staff1	*
*I"Organo.	*	*	*I"Violino 2.do	*	*I"Violino Primo.	*	*I"Baſso.	*	*	*I"[Tenore]	*I"Alto.	*	*	*I"Canto.	*	*	*I"[Clarino]	*I"Cornu 2.do	*	*I"Cornu I.mo	*	*I"Clarinetto vel Oboe 2do	*	*I"Clarinetto vel Oboe Imo	*	*I"Flauto 2.do	*	*I"Flauto 1.mo	*
*mI"Organo	*	*	*mI"Violino II	*	*mI"Violino I	*	*mI"Basso	*	*	*mI"Tenore	*mI"Alto	*	*	*mI"Soprano	*	*	*mI"Clarino	*mI"Corno II in D	*	*mI"Corno I in D	*	*mI"Clarinetto vel Oboe II	*	*mI"Clarinetto vel Oboe I	*	*mI"Flauto II	*	*mI"Flauto I	*
*I'org	*	*	*I'vl 2	*	*I'vl 1	*	*I'B	*	*	*I'[T]	*I'A	*	*	*I'S	*	*	*I'[clno]	*I'cor 2	*	*I'cor 1	*	*I'cl vel ob 2	*	*I'cl vel ob 1	*	*I'fl 2	*	*I'fl 1	*
*Iorgan	*	*	*Ivioln	*	*Ivioln	*	*Ibass	*	*	*Itenor	*Ialto	*	*	*Isoprn	*	*	*Iclrno	*Icor	*	*Icor	*	*Iclars|Ioboe	*	*Iclars|Ioboe	*	*Iflt	*	*Iflt	*
*ICklav	*	*	*ICstr	*	*ICstr	*	*ICvox	*	*	*ICvox	*ICvox	*	*	*ICvox	*	*	*ICbras	*ICbras	*	*ICbras	*	*ICww	*	*ICww	*	*ICww	*	*ICww	*
*IGcont	*	*	*	*	*	*	*IGcoro	*	*	*IGcoro	*IGcoro	*	*	*IGcoro	*	*	*	*	*	*	*	*	*	*	*	*	*	*	*
!	!	!	!	!	!	!	!	!	!	!LO:MO:mod=*tacet	!	!	!	!	!	!	!LO:MO:mod=*tacet	!	!	!	!	!	!	!	!	!	!	!	!
*	*	*	*	*	*	*	*	*	*	*null	*	*	*	*	*	*	*null	*	*	*	*	*	*	*	*	*	*	*	*
*clefF4	*	*	*clefG2	*	*clefG2	*	*clefF4	*	*	*clefC4	*clefC3	*	*	*clefC1	*	*	*clefG2	*clefG2	*	*clefG2	*	*clefG2	*	*clefG2	*	*clefG2	*	*clefG2	*
*	*	*	*	*	*	*	*	*	*	*mclefGv2	*mclefG2	*	*	*mclefG2	*	*	*	*	*	*	*	*	*	*	*	*	*	*	*
*	*	*	*	*	*	*	*	*	*	*	*	*	*	*	*	*	*	*ITrd6c10	*	*ITrd6c10	*	*	*	*	*	*	*	*	*
*k[f#c#]	*	*	*k[f#c#]	*	*k[f#c#]	*	*k[f#c#]	*	*	*k[f#c#]	*k[f#c#]	*	*	*k[f#c#]	*	*	*k[f#c#]	*k[f#c#]	*	*k[f#c#]	*	*k[f#c#]	*	*k[f#c#]	*	*k[f#c#]	*	*k[f#c#]	*
*D:	*	*	*D:	*	*D:	*	*D:	*	*	*D:	*D:	*	*	*D:	*	*	*D:	*	*	*	*	*D:	*	*D:	*	*D:	*	*D:	*
*M3/4	*	*	*M3/4	*	*M3/4	*	*M3/4	*	*	*M3/4	*M3/4	*	*	*M3/4	*	*	*M3/4	*M3/4	*	*M3/4	*	*M3/4	*	*M3/4	*	*M3/4	*	*M3/4	*
=1	=1	=1	=1	=1	=1	=1	=1	=1	=1	=1	=1	=1	=1	=1	=1	=1	=1	=1	=1	=1	=1	=1	=1	=1	=1	=1	=1	=1	=1
!LO:MO:mod=*null:null	!	!	!LO:MO:mod=*null:null	!	!LO:MO:mod=*null:null	!	!LO:MO:mod=*null:null	!	!	!	!LO:MO:mod=*null:null	!	!	!LO:MO:mod=*null:null	!	!	!	!LO:MO:mod=*null:null	!	!LO:MO:mod=*null:null	!	!LO:MO:mod=*null:null	!	!LO:MO:mod=*null:null	!	!LO:MO:mod=*null:null	!	!LO:MO:mod=*null:null	!
*all\right	*	*	*all\right	*	*all\right	*	*all\right	*	*	*	*all\right	*	*	*all\right	*	*	*	*all\right	*	*all\right	*	*all\right	*	*all\right	*	*all\right	*	*all\right	*
!	!	!LO:MO:mod=!LO&colon;DY&colon;ed=brack	!	!LO:MO:mod=!LO&colon;DY&colon;ed=brack	!	!	!	!	!	!	!	!	!	!LO:TX:t=P:problem=znaki f# cc#	!	!	!	!	!	!	!LO:MO:mod=!LO&colon;DY&colon;ed=brack	!	!LO:MO:mod=!LO&colon;DY&colon;ed=brack	!	!LO:MO:mod=!LO&colon;DY&colon;ed=brack	!	!	!	!
!LO:TX:a:i:t=Tutti:mod=	!	!null	!	!null	!	!	!LO:TX:a:t=T.:mod=	!	!	!LO:TX:a:t=P:problem=brak partii w źródle	!	!	!	!LO:TX:a:t=T.:mod=	!	!	!LO:TX:a:t=P:problem=brak partii w źródle	!	!	!	!null	!	!null	!	!null	!LO:DY:a:t=ff.	!	!	!
!LO:TX:a:i:rj:t=Ada&colon;:mod=	!	!LO:MO:null:mod=ff	!LO:TX:a:i:t=Ada&colon;:mod=	!LO:MO:null:mod=ff	!LO:TX:a:i:rj:t=Ada&colon;:mod=	!LO:DY:a:t=ff.	!LO:TX:a:rj:t=Ada.:mod=	!	!	!	!LO:TX:a:i:rj:t=Ad&colon;:mod=	!	!	!LO:TX:a:i:rj:t=Ada&colon;:mod=	!	!	!	!LO:TX:a:i:rj:t=Ada&colon;:mod=	!LO:DY:a:t=for&colon;	!LO:TX:a:i:t=Ada.:mod=	!LO:MO:null:mod=f	!LO:TX:a:i:t=Ada&colon;:mod=	!LO:MO:null:mod=f	!LO:TX:a:i:t=Ada&colon;:mod=	!LO:MO:null:mod=f	!LO:TX:a:i:rj:t=Ad&colon;:mod=	!LO:MO:mod=f	!LO:TX:a:i:rj:t=Ad&colon;:mod=	!LO:DY:a:rj:t=f.
4d\	.	.	4a 4f#/	.	4dd\	ff	4d\	San-	.	2.ryy	4f#\	San-	.	4dd\	San-	.	2.ryy	4d\	f	4f#\	.	4dd\	.	4ff#\	.	4ff#\	ff	4ddd\	f
*	*	*	*	*	*	*	*	*	*	*	*	*	*	*	*	*	*	*	*	*	*	*2\right	*	*2\right	*	*	*	*	*
*	*	*	*	*	*	*	*	*	*	*	*	*	*	*	*	*	*	*	*	*	*	*tremolo	*	*tremolo	*	*	*	*	*
!	!	!	!	!LO:DY:a:t=ffor&colon;	!	!	!	!	!	!	!	!	!	!	!	!	!	!	!	!	!	!	!	!	!	!	!	!	!
!	!	!	!	!LO:MO:mod=.	!	!	!	!	!	!	!	!	!	!	!	!	!	!	!	!	!	!	!	!	!	!	!	!	!
4D\	.	.	8aL 8f#/	ff	8dd\L	.	4D\	-ctuſ	.	.	4f#\	-ctus	.	4dd\	-ctus	.	.	8d\L	.	8f#\L	.	8dd\L	.	8ff#\L	.	4ff#\	.	4ddd\	.
.	.	.	8f#/	.	8dd\	.	.	.	.	.	.	.	.	.	.	.	.	8d\	.	8f#\	.	8dd\	.	8ff#\	.	.	.	.	.
!	!	!	!	!	!	!	!	!	!	!	!	!	!	!	!	!	!	!	!	!	!	!	!	!	!	!	!	!LO:TX:t=P:problem=brak 4r	!
4r	.	.	8f#/	.	8dd\	.	4r	.	.	.	4r	.	.	4r	.	.	.	8d\	.	8f#\	.	8dd\	.	8ff#\	.	4r	.	4ryy	.
.	.	.	8f#/J	.	8dd\J	.	.	.	.	.	.	.	.	.	.	.	.	8d\J	.	8f#\J	.	8dd\J	.	8ff#\J	.	.	.	.	.
*	*	*	*	*	*	*	*	*	*	*	*	*	*	*	*	*	*	*	*	*	*	*	*	*Xtremolo	*	*	*	*	*
=2	=2	=2	=2	=2	=2	=2	=2	=2	=2	=2	=2	=2	=2	=2	=2	=2	=2	=2	=2	=2	=2	=2	=2	=2	=2	=2	=2	=2	=2
*	*	*	*	*	*	*	*	*ij	*	*	*	*ij	*	*	*ij	*	*	*	*	*	*	*	*	*	*	*	*	*	*
4B\	.	.	4f#/	.	4dd\	.	4B\	San-	.	2.ryy	4f#\	San-	.	4dd\	San-	.	2.ryy	4d\	.	4f#\	.	4dd\	.	4ff#\	.	4ff#\	.	4ddd\	.
*	*	*	*	*	*	*	*	*	*	*	*	*	*	*	*	*	*	*	*	*	*	*	*	*tremolo	*	*	*	*	*
4BB/	.	.	8f#/L	.	8dd\L	.	4BB/	-ctuſ	.	.	4f#\	-ctus	.	4dd\	-ctus	.	.	8d\L	.	8f#\L	.	8dd\L	.	8ff#\L	.	4ff#\	.	4ddd\	.
.	.	.	8f#/	.	8dd\	.	.	.	.	.	.	.	.	.	.	.	.	8d\	.	8f#\	.	8dd\	.	8ff#\	.	.	.	.	.
4r	.	.	8f#/	.	8dd\	.	4r	.	.	.	4r	.	.	4r	.	.	.	8d\	.	8f#\	.	8dd\	.	8ff#\	.	4r	.	4r	.
.	.	.	8f#/J	.	8dd\J	.	.	.	.	.	.	.	.	.	.	.	.	8d\J	.	8f#\J	.	8dd\J	.	8ff#\J	.	.	.	.	.
*	*	*	*	*	*	*	*	*Xij	*	*	*	*Xij	*	*	*	*	*	*	*	*	*	*Xtremolo	*	*Xtremolo	*	*	*	*	*
=3	=3	=3	=3	=3	=3	=3	=3	=3	=3	=3	=3	=3	=3	=3	=3	=3	=3	=3	=3	=3	=3	=3	=3	=3	=3	=3	=3	=3	=3
*2\right	*	*	*	*	*2\right	*	*	*	*	*	*	*	*	*2\right	*	*	*	*2\right	*	*2\right	*	*	*	*	*	*2\right	*	*2\right	*
*tremolo	*	*	*tremolo	*	*tremolo	*	*	*	*	*	*	*	*	*	*	*	*	*	*	*	*	*	*	*	*	*	*	*	*
8A\L	4 2	.	8b 8f#/L	.	8dd#X\L	.	4.A\	Do-	.	2.ryy	4.f#\	Do-	.	2dd#X\	San-	.	2.ryy	2.f#\	.	2.f#\	.	2.dd#X\	.	2.ff#\	.	2.ff#\	.	2.bb\	.
8A\	.	.	8b 8f#/	.	8dd#X\	.	.	.	.	.	.	.	.	.	.	.	.	.	.	.	.	.	.	.	.	.	.	.	.
8A\	.	.	8b 8f#/	.	8dd#X\	.	.	.	.	.	.	.	.	.	.	.	.	.	.	.	.	.	.	.	.	.	.	.	.
8A\	.	.	8b 8f#/	.	8dd#X\	.	8A\	-mi-	.	.	8f#\	-mi-	.	.	.	.	.	.	.	.	.	.	.	.	.	.	.	.	.
8A\	.	.	8b 8f#/	.	8dd#X\	.	4A\	-nuſ	.	.	4f#\	-nuſ	.	4dd#\	-ctus	.	.	.	.	.	.	.	.	.	.	.	.	.	.
*	*	*	*	*	*	*	*	*	*	*	*	*	*	*	*Xij	*	*	*	*	*	*	*	*	*	*	*	*	*	*
8A\J	.	.	8b 8f#/J	.	8dd#X\J	.	.	.	.	.	.	.	.	.	.	.	.	.	.	.	.	.	.	.	.	.	.	.	.
=4	=4	=4	=4	=4	=4	=4	=4	=4	=4	=4	=4	=4	=4	=4	=4	=4	=4	=4	=4	=4	=4	=4	=4	=4	=4	=4	=4	=4	=4
*	*	*	*2\right	*	*	*	*2\right	*	*	*	*2\right	*	*	*	*	*	*	*	*	*	*	*	*	*	*	*	*	*	*
8G\L	6	.	8b\L	.	8ee\L	.	2G\	De-	.	2.ryy	2e\	De-	.	4.ee\	Do-	.	2.ryy	2.e\	.	2.e\	.	2.b\	.	2.ee\	.	2.ee\	.	2.bb\	.
8G\	.	.	8b\	.	8ee\	.	.	.	.	.	.	.	.	.	.	.	.	.	.	.	.	.	.	.	.	.	.	.	.
8G\	.	.	8b\	.	8ee\	.	.	.	.	.	.	.	.	.	.	.	.	.	.	.	.	.	.	.	.	.	.	.	.
8G\	.	.	8b\	.	8ee\	.	.	.	.	.	.	.	.	8ee\	-mi-	.	.	.	.	.	.	.	.	.	.	.	.	.	.
8G\	.	.	8b\	.	8ee\	.	4G\	-uſ	.	.	4e\	-us	.	4ee\	-nus	.	.	.	.	.	.	.	.	.	.	.	.	.	.
8G\J	.	.	8b\J	.	8ee\J	.	.	.	.	.	.	.	.	.	.	.	.	.	.	.	.	.	.	.	.	.	.	.	.
=5	=5	=5	=5	=5	=5	=5	=5	=5	=5	=5	=5	=5	=5	=5	=5	=5	=5	=5	=5	=5	=5	=5	=5	=5	=5	=5	=5	=5	=5
*	*	*	*	*	*	*	*	*	*	*	*	*ij	*	*	*ij	*	*	*tremolo	*	*tremolo	*	*	*	*	*	*	*	*	*
8F#\L	7	.	8a#X\L	.	8ee\L	.	2F#\	San-	.	2.ryy	4.a#X\	Do-	.	4.ee\	Do-	.	2.ryy	8F#/L	.	8f#\L	.	2.cc#\	.	2.ee\	.	2.aa#X\	.	2.ccc#\	.
8F#\	.	.	8a#X\	.	8ee\	.	.	.	.	.	.	.	.	.	.	.	.	8F#/	.	8f#\	.	.	.	.	.	.	.	.	.
8F#\	.	.	8a#X\	.	8ee\	.	.	.	.	.	.	.	.	.	.	.	.	8F#/	.	8f#\	.	.	.	.	.	.	.	.	.
8F#\	.	.	8a#X\	.	8ee\	.	.	.	.	.	8a#\	-mi-	.	8ee\	-mi-	.	.	8F#/	.	8f#\	.	.	.	.	.	.	.	.	.
8F#\	.	.	8a#X\	.	8ee\	.	4F#\	-ctuſ	.	.	4a#\	-nuſ	.	4ee\	-nus	.	.	8F#/	.	8f#\	.	.	.	.	.	.	.	.	.
*	*	*	*	*	*	*	*	*	*	*	*	*	*	*	*Xij	*	*	*	*	*	*	*	*	*	*	*	*	*	*
8F#\J	.	.	8a#X\J	.	8ee\J	.	.	.	.	.	.	.	.	.	.	.	.	8F#/J	.	8f#\J	.	.	.	.	.	.	.	.	.
=6	=6	=6	=6	=6	=6	=6	=6	=6	=6	=6	=6	=6	=6	=6	=6	=6	=6	=6	=6	=6	=6	=6	=6	=6	=6	=6	=6	=6	=6
!	!	!	!	!	!	!	!	!LO:MO:mod=Do-	!	!	!	!	!	!	!	!	!	!	!	!	!	!	!	!	!	!	!	!	!
8F#\L	6 4	.	8b\L	.	8dd\L	.	4.F#\	D(o-	.	2.ryy	2b\	De-	.	2dd\	De-	.	2.ryy	8F#/L	.	8f#\L	.	2.b\	.	2.dd\	.	2.bb\	.	2.ddd\	.
8F#\	.	.	8b\	.	8dd\	.	.	.	.	.	.	.	.	.	.	.	.	8F#/	.	8f#\	.	.	.	.	.	.	.	.	.
8F#\	.	.	8b\	.	8dd\	.	.	.	.	.	.	.	.	.	.	.	.	8F#/	.	8f#\	.	.	.	.	.	.	.	.	.
!	!	!	!	!	!	!	!	!LO:MO:mod=-mi-	!	!	!	!	!	!	!	!	!	!	!	!	!	!	!	!	!	!	!	!	!
8F#\	.	.	8b\	.	8dd\	.	8F#\	-mi)-	.	.	.	.	.	.	.	.	.	8F#/	.	8f#\	.	.	.	.	.	.	.	.	.
8F#\	.	.	8b\	.	8dd\	.	4F#\	-nuſ	.	.	4b\	-us	.	4dd\	-us	.	.	8F#/	.	8f#\	.	.	.	.	.	.	.	.	.
*	*	*	*	*	*	*	*	*	*	*	*	*Xij	*	*	*	*	*	*	*	*	*	*	*	*	*	*	*	*	*
8F#\J	.	.	8b\J	.	8dd\J	.	.	.	.	.	.	.	.	.	.	.	.	8F#/J	.	8f#\J	.	.	.	.	.	.	.	.	.
!	!	!	!	!	!	!	!	!	!	!	!LO:LB:g=original	!	!	!	!	!	!	!	!	!	!	!	!	!	!	!	!	!	!
=7	=7	=7	=7	=7	=7	=7	=7	=7	=7	=7	=7	=7	=7	=7	=7	=7	=7	=7	=7	=7	=7	=7	=7	=7	=7	=7	=7	=7	=7
*	*	*	*	*	*	*	*	*ij	*	*	*	*	*	*	*	*	*	*	*	*	*	*	*	*	*	*	*	*	*
!	!	!	!	!	!	!	!	!LO:MO:mod=Do-	!	!	!	!	!	!	!	!	!	!	!	!	!	!	!	!	!	!	!	!	!
8F#\L	6	.	8dd 8d/L	.	8aa\L	.	4.F#\	D(o-	.	2.ryy	4.an\	Do-	.	4.dd\	Do-	.	2.ryy	8D/L	.	8d\L	.	2.dd\	.	2.aa\	.	2.aan\	.	2.ddd\	.
8F#\	.	.	8dd 8d/	.	8aa\	.	.	.	.	.	.	.	.	.	.	.	.	8D/	.	8d\	.	.	.	.	.	.	.	.	.
8F#\	.	.	8dd 8d/	.	8aa\	.	.	.	.	.	.	.	.	.	.	.	.	8D/	.	8d\	.	.	.	.	.	.	.	.	.
!	!	!	!	!	!	!	!	!LO:MO:mod=-mi-	!	!	!	!	!	!	!	!	!	!	!	!	!	!	!	!	!	!	!	!	!
8F#\	.	.	8dd 8d/	.	8aa\	.	8F#\	-mi)-	.	.	8a\	-mi-	.	8dd\	-mi-	.	.	8D/	.	8d\	.	.	.	.	.	.	.	.	.
!	!	!	!	!	!	!	!	!	!	!	!	!	!	!	!LO:MO:mod=-nus	!	!	!	!	!	!	!	!	!	!	!	!	!	!
8F#\	.	.	8dd 8d/	.	8aa\	.	4F#\	-nuſ	.	.	4a\	-nus	.	4dd\	-n[us]	.	.	8D/	.	8d\	.	.	.	.	.	.	.	.	.
*	*	*	*	*	*	*	*	*Xij	*	*	*	*	*	*	*	*	*	*	*	*	*	*	*	*	*	*	*	*	*
8F#\J	.	.	8dd 8d/J	.	8aa\J	.	.	.	.	.	.	.	.	.	.	.	.	8D/J	.	8d\J	.	.	.	.	.	.	.	.	.
!	!	!	!	!	!	!	!	!	!	!	!	!	!	!LO:LB:g=original	!	!	!	!	!	!	!	!	!	!	!	!	!	!	!
=8	=8	=8	=8	=8	=8	=8	=8	=8	=8	=8	=8	=8	=8	=8	=8	=8	=8	=8	=8	=8	=8	=8	=8	=8	=8	=8	=8	=8	=8
8G\L	.	.	8dd 8d/L	.	8bb\L	.	2G\	De-	.	2.ryy	2b\	De-	.	2dd\	De-	.	2.ryy	8D/L	.	8d\L	.	2.dd\	.	2.bb\	.	2.bb\	.	2.ddd\	.
8G\	.	.	8dd 8d/	.	8bb\	.	.	.	.	.	.	.	.	.	.	.	.	8D/	.	8d\	.	.	.	.	.	.	.	.	.
8G\	.	.	8dd 8d/	.	8bb\	.	.	.	.	.	.	.	.	.	.	.	.	8D/	.	8d\	.	.	.	.	.	.	.	.	.
8G\	.	.	8dd 8d/	.	8bb\	.	.	.	.	.	.	.	.	.	.	.	.	8D/	.	8d\	.	.	.	.	.	.	.	.	.
8G\	.	.	8dd 8d/	.	8bb\	.	4G\	-uſ	.	.	4b\	-us	.	4dd\	-us	.	.	8D/	.	8d\	.	.	.	.	.	.	.	.	.
8G\J	.	.	8dd 8d/J	.	8bb\J	.	.	.	.	.	.	.	.	.	.	.	.	8D/J	.	8d\J	.	.	.	.	.	.	.	.	.
*	*	*	*	*	*Xtremolo	*	*	*	*	*	*	*	*	*	*	*	*	*	*	*	*	*	*	*	*	*	*	*	*
=9	=9	=9	=9	=9	=9	=9	=9	=9	=9	=9	=9	=9	=9	=9	=9	=9	=9	=9	=9	=9	=9	=9	=9	=9	=9	=9	=9	=9	=9
8G#X\L	6 5	.	8b 8e/L	.	8bb\L	.	2G#X\	Sa-	.	2.ryy	2b\	Sa-	.	2dd\	Sa-	.	2.ryy	8e\L	.	8e\L	.	2.dd\	.	2.bb\	.	2.bb\	.	2.ddd\	.
8G#X\	.	.	8b 8e/	.	8dd\J	.	.	.	.	.	.	.	.	.	.	.	.	8e\	.	8e\	.	.	.	.	.	.	.	.	.
*	*	*	*	*	*tremolo	*	*	*	*	*	*	*	*	*	*	*	*	*	*	*	*	*	*	*	*	*	*	*	*
8G#X\	.	.	8b 8e/	.	8dd\L	.	.	.	.	.	.	.	.	.	.	.	.	8e\	.	8e\	.	.	.	.	.	.	.	.	.
8G#X\	.	.	8b 8e/	.	8dd\	.	.	.	.	.	.	.	.	.	.	.	.	8e\	.	8e\	.	.	.	.	.	.	.	.	.
8G#X\	.	.	8b 8e/	.	8dd\	.	4G#\	-ba-	.	.	4b\	-ba-	.	4dd\	-ba-	.	.	8e\	.	8e\	.	.	.	.	.	.	.	.	.
8G#X\J	.	.	8b 8e/J	.	8dd\J	.	.	.	.	.	.	.	.	.	.	.	.	8e\J	.	8e\J	.	.	.	.	.	.	.	.	.
*Xtremolo	*	*	*Xtremolo	*	*Xtremolo	*	*	*	*	*	*	*	*	*	*	*	*	*Xtremolo	*	*Xtremolo	*	*	*	*	*	*	*	*	*
!	!	!	!	!	!	!	!LO:LB:g=original	!	!	!	!	!	!	!	!	!	!	!	!	!	!	!	!	!	!	!	!	!	!
=10	=10	=10	=10	=10	=10	=10	=10	=10	=10	=10	=10	=10	=10	=10	=10	=10	=10	=10	=10	=10	=10	=10	=10	=10	=10	=10	=10	=10	=10
4A\	.	.	4e/	.	8cc#\L	.	4A\	-oth	.	2.ryy	4a\	-oth	.	4cc#\	-oth	.	2.ryy	4A/	.	4e\	.	4cc#\	.	4aa\	.	4aa\	.	4ccc#\	.
!	!	!	!	!	!	!LO:DY:a:t=p&colon;	!	!	!	!	!	!	!	!	!	!	!	!	!	!	!	!	!	!	!	!	!	!	!
.	.	.	.	.	16a\L	p	.	.	.	.	.	.	.	.	.	.	.	.	.	.	.	.	.	.	.	.	.	.	.
.	.	.	.	.	16g#X\JJ	.	.	.	.	.	.	.	.	.	.	.	.	.	.	.	.	.	.	.	.	.	.	.	.
4r	.	.	4r	.	16b\LL	.	4r	.	.	.	4r	.	.	4r	.	.	.	4r	.	4r	.	4r	.	4r	.	4r	.	4r	.
.	.	.	.	.	16a\	.	.	.	.	.	.	.	.	.	.	.	.	.	.	.	.	.	.	.	.	.	.	.	.
.	.	.	.	.	16cc#\	.	.	.	.	.	.	.	.	.	.	.	.	.	.	.	.	.	.	.	.	.	.	.	.
*	*	*	*	*	*custos:dd	*	*	*	*	*	*	*	*	*	*	*	*	*	*	*	*	*	*	*	*	*	*	*	*
.	.	.	.	.	16b\JJ	.	.	.	.	.	.	.	.	.	.	.	.	.	.	.	.	.	.	.	.	.	.	.	.
!	!	!	!	!	!LO:LB:g=original	!	!	!	!	!	!	!	!	!	!	!	!	!	!	!	!	!	!	!	!	!	!	!	!
4r	.	.	4r	.	16dd\LL	.	4r	.	.	.	4r	.	.	4r	.	.	.	4r	.	4r	.	4r	.	4r	.	4r	.	4r	.
.	.	.	.	.	16cc#\	.	.	.	.	.	.	.	.	.	.	.	.	.	.	.	.	.	.	.	.	.	.	.	.
.	.	.	.	.	16ff#\	.	.	.	.	.	.	.	.	.	.	.	.	.	.	.	.	.	.	.	.	.	.	.	.
.	.	.	.	.	16ee\JJ	.	.	.	.	.	.	.	.	.	.	.	.	.	.	.	.	.	.	.	.	.	.	.	.
=11	=11	=11	=11	=11	=11	=11	=11	=11	=11	=11	=11	=11	=11	=11	=11	=11	=11	=11	=11	=11	=11	=11	=11	=11	=11	=11	=11	=11	=11
!	!	!LO:DY:a:t=p.	!	!LO:DY:a:t=p&colon;	!LO:TX:t=P:problem=mixed beam	!	!	!	!LO:DY:a:rj:t=pp.	!	!	!	!LO:DY:a:t=pp.	!	!	!LO:DY:a:t=pp.	!	!	!LO:DY:a:t=pp.	!	!LO:DY:a:t=pp.	!	!LO:DY:a:rj	!	!LO:DY:a:rj	!	!LO:DY:a:rj:t=p.	!	!LO:DY:a:rj:t=p.
4AA/	.	p	16A/LL	p	(8gg\L	.	2A\	San-	pp	2.ryy	2gn\	San-	pp	2cc#\	San-	pp	2.ryy	2.A/	pp	2.e\	pp	2.ee\	pp	2.gg\	pp	2.ee\	p	2.gg\	p
.	.	.	16c#/	.	.	.	.	.	.	.	.	.	.	.	.	.	.	.	.	.	.	.	.	.	.	.	.	.	.
.	.	.	16e/	.	8a/J)	.	.	.	.	.	.	.	.	.	.	.	.	.	.	.	.	.	.	.	.	.	.	.	.
.	.	.	16c#/JJ	.	.	.	.	.	.	.	.	.	.	.	.	.	.	.	.	.	.	.	.	.	.	.	.	.	.
*	*	*	*rep	*	*	*	*	*	*	*	*	*	*	*	*	*	*	*	*	*	*	*	*	*	*	*	*	*	*
4A\	.	.	16A/LL	.	8r	.	.	.	.	.	.	.	.	.	.	.	.	.	.	.	.	.	.	.	.	.	.	.	.
.	.	.	16c#/	.	.	.	.	.	.	.	.	.	.	.	.	.	.	.	.	.	.	.	.	.	.	.	.	.	.
.	.	.	16e/	.	8gg\L	.	.	.	.	.	.	.	.	.	.	.	.	.	.	.	.	.	.	.	.	.	.	.	.
.	.	.	16c#/JJ	.	.	.	.	.	.	.	.	.	.	.	.	.	.	.	.	.	.	.	.	.	.	.	.	.	.
*	*	*	*Xrep	*	*	*	*	*	*	*	*	*	*	*	*	*	*	*	*	*	*	*	*	*	*	*	*	*	*
*	*	*	*rep	*	*	*	*	*	*	*	*	*	*	*	*	*	*	*	*	*	*	*	*	*	*	*	*	*	*
*custos:AA	*	*	*	*	*	*	*	*	*	*	*	*	*	*	*	*	*	*	*	*	*	*	*	*	*	*	*	*	*
4r	.	.	16A/LL	.	8gg\	.	4A\	-ctuſ	.	.	4g\	-ctus	.	4cc#\	-ctuſ	.	.	.	.	.	.	.	.	.	.	.	.	.	.
.	.	.	16c#/	.	.	.	.	.	.	.	.	.	.	.	.	.	.	.	.	.	.	.	.	.	.	.	.	.	.
.	.	.	16e/	.	8gg\J	.	.	.	.	.	.	.	.	.	.	.	.	.	.	.	.	.	.	.	.	.	.	.	.
.	.	.	16c#/JJ	.	.	.	.	.	.	.	.	.	.	.	.	.	.	.	.	.	.	.	.	.	.	.	.	.	.
*	*	*	*Xrep	*	*	*	*	*	*	*	*	*	*	*	*	*	*	*	*	*	*	*	*	*	*	*	*	*	*
!LO:LB:g=original	!	!	!LO:LB:g=original	!	!	!	!	!	!	!	!	!	!	!	!	!	!	!	!	!	!	!	!	!	!	!LO:LB:g=original	!	!	!
=12	=12	=12	=12	=12	=12	=12	=12	=12	=12	=12	=12	=12	=12	=12	=12	=12	=12	=12	=12	=12	=12	=12	=12	=12	=12	=12	=12	=12	=12
!	!	!	!	!	!	!	!	!LO:MO:mod=De-	!	!	!	!	!	!	!	!	!	!	!	!	!	!	!	!	!	!	!	!	!
4AA/	.	.	16A/LL	.	(8ee#X\L	.	2A\	D(omi)-	.	2.ryy	2f#\	De-	.	4.dd\	Do-	.	2.ryy	2.d\	.	2.f#\	.	2.dd\	.	2.ff#\	.	2.dd\	.	2.ff#\	.
.	.	.	16d/	.	.	.	.	.	.	.	.	.	.	.	.	.	.	.	.	.	.	.	.	.	.	.	.	.	.
.	.	.	16f#/	.	8ff#\J)	.	.	.	.	.	.	.	.	.	.	.	.	.	.	.	.	.	.	.	.	.	.	.	.
.	.	.	16d/JJ	.	.	.	.	.	.	.	.	.	.	.	.	.	.	.	.	.	.	.	.	.	.	.	.	.	.
*	*	*	*rep	*	*	*	*	*	*	*	*	*	*	*	*	*	*	*	*	*	*	*	*	*	*	*	*	*	*
4A\	.	.	16A/LL	.	8r	.	.	.	.	.	.	.	.	.	.	.	.	.	.	.	.	.	.	.	.	.	.	.	.
.	.	.	16d/	.	.	.	.	.	.	.	.	.	.	.	.	.	.	.	.	.	.	.	.	.	.	.	.	.	.
.	.	.	16f#/	.	8aa\L	.	.	.	.	.	.	.	.	8dd\	-mi-	.	.	.	.	.	.	.	.	.	.	.	.	.	.
.	.	.	16d/JJ	.	.	.	.	.	.	.	.	.	.	.	.	.	.	.	.	.	.	.	.	.	.	.	.	.	.
*	*	*	*Xrep	*	*	*	*	*	*	*	*	*	*	*	*	*	*	*	*	*	*	*	*	*	*	*	*	*	*
*	*	*	*rep	*	*	*	*	*	*	*	*	*	*	*	*	*	*	*	*	*	*	*	*	*	*	*	*	*	*
.	.	.	.	.	8qgg/	.	.	.	.	.	.	.	.	.	.	.	.	.	.	.	.	.	.	.	.	.	.	.	.
!	!	!	!	!	!	!	!	!LO:MO:mod=-us	!	!	!	!	!	!	!	!	!	!	!	!	!	!	!	!	!	!	!	!	!
4r	.	.	16A/LL	.	8ff#\	.	4A\	-nuſ	.	.	4f#\	-uſ	.	4dd\	-nuſ	.	.	.	.	.	.	.	.	.	.	.	.	.	.
.	.	.	16d/	.	.	.	.	.	.	.	.	.	.	.	.	.	.	.	.	.	.	.	.	.	.	.	.	.	.
!	!	!	!	!	!LO:SIC:v:s=8qee	!	!	!	!	!	!	!	!	!	!	!	!	!	!	!	!	!	!	!	!	!	!	!	!
.	.	.	.	.	8qee#/	.	.	.	.	.	.	.	.	.	.	.	.	.	.	.	.	.	.	.	.	.	.	.	.
.	.	.	16f#/	.	8dd\J	.	.	.	.	.	.	.	.	.	.	.	.	.	.	.	.	.	.	.	.	.	.	.	.
.	.	.	16d/JJ	.	.	.	.	.	.	.	.	.	.	.	.	.	.	.	.	.	.	.	.	.	.	.	.	.	.
*	*	*	*Xrep	*	*	*	*	*	*	*	*	*	*	*	*	*	*	*	*	*	*	*	*	*	*	*	*	*	*
!	!	!	!	!	!	!	!	!	!	!	!	!	!	!	!	!	!	!LO:LB:g=original	!	!LO:LB:g=original	!	!	!	!	!	!	!	!	!
=13	=13	=13	=13	=13	=13	=13	=13	=13	=13	=13	=13	=13	=13	=13	=13	=13	=13	=13	=13	=13	=13	=13	=13	=13	=13	=13	=13	=13	=13
*	*	*	*	*	*	*	*	*	*	*	*	*ij	*	*	*	*	*	*	*	*	*	*	*	*	*	*	*	*	*
!	!	!	!	!	!	!	!	!LO:MO:mod=San-	!	!	!	!	!	!	!	!	!	!	!	!	!	!	!	!	!	!	!	!	!
4AA/	.	.	16A/LL	.	(8cc#\L	.	2A\	De-	.	2.ryy	2g\	San-	.	2.cc#\	De-	.	2.ryy	2.e\	.	2.g\	.	2.ee\	.	2.gg\	.	2.ee\	.	2.gg\	.
.	.	.	16e/	.	.	.	.	.	.	.	.	.	.	.	.	.	.	.	.	.	.	.	.	.	.	.	.	.	.
.	.	.	16g/	.	8a\J)	.	.	.	.	.	.	.	.	.	.	.	.	.	.	.	.	.	.	.	.	.	.	.	.
.	.	.	16e/JJ	.	.	.	.	.	.	.	.	.	.	.	.	.	.	.	.	.	.	.	.	.	.	.	.	.	.
*	*	*	*rep	*	*	*	*	*	*	*	*	*	*	*	*	*	*	*	*	*	*	*	*	*	*	*	*	*	*
4A\	.	.	16A/LL	.	8r	.	.	.	.	.	.	.	.	.	.	.	.	.	.	.	.	.	.	.	.	.	.	.	.
.	.	.	16e/	.	.	.	.	.	.	.	.	.	.	.	.	.	.	.	.	.	.	.	.	.	.	.	.	.	.
.	.	.	16g/	.	8cc#\L	.	.	.	.	.	.	.	.	.	.	.	.	.	.	.	.	.	.	.	.	.	.	.	.
.	.	.	16e/JJ	.	.	.	.	.	.	.	.	.	.	.	.	.	.	.	.	.	.	.	.	.	.	.	.	.	.
*	*	*	*Xrep	*	*	*	*	*	*	*	*	*	*	*	*	*	*	*	*	*	*	*	*	*	*	*	*	*	*
*	*	*	*rep	*	*	*	*	*	*	*	*	*	*	*	*	*	*	*	*	*	*	*	*	*	*	*	*	*	*
!	!	!	!	!	!	!	!	!LO:MO:mod=-ctus	!	!	!	!	!	!	!	!	!	!	!	!	!	!	!	!	!	!	!	!	!
4r	.	.	16A/LL	.	8cc#\	.	4A\	-uſ	.	.	4g\	-ctus	.	.	.	.	.	.	.	.	.	.	.	.	.	.	.	.	.
.	.	.	16e/	.	.	.	.	.	.	.	.	.	.	.	.	.	.	.	.	.	.	.	.	.	.	.	.	.	.
.	.	.	16g/	.	8cc#\J	.	.	.	.	.	.	.	.	.	.	.	.	.	.	.	.	.	.	.	.	.	.	.	.
.	.	.	16e/JJ	.	.	.	.	.	.	.	.	.	.	.	.	.	.	.	.	.	.	.	.	.	.	.	.	.	.
*	*	*	*Xrep	*	*	*	*	*	*	*	*	*	*	*	*	*	*	*	*	*	*	*	*	*	*	*	*	*	*
=14	=14	=14	=14	=14	=14	=14	=14	=14	=14	=14	=14	=14	=14	=14	=14	=14	=14	=14	=14	=14	=14	=14	=14	=14	=14	=14	=14	=14	=14
*	*	*	*	*	*	*	*	*ij	*	*	*	*	*	*	*	*	*	*	*	*	*	*	*	*	*	*	*	*	*
!	!	!	!	!	!	!	!	!	!	!	!	!	!	!	!	!	!	!	!	!	!	!	!	!LO:TX:t=P:problem=niekompletny takt	!	!	!	!	!
4AA/	.	.	16A/LL	.	(8cc#\L	.	2A\	De-	.	2.ryy	2f#\	De-	.	2.dd\	-us	.	2.ryy	2.d\	.	2.f#\	.	2.dd\	.	2.ff#\	.	2.dd\	.	2.ff#\	.
.	.	.	16d/	.	.	.	.	.	.	.	.	.	.	.	.	.	.	.	.	.	.	.	.	.	.	.	.	.	.
.	.	.	16f#/	.	8dd\J)	.	.	.	.	.	.	.	.	.	.	.	.	.	.	.	.	.	.	.	.	.	.	.	.
.	.	.	16d/JJ	.	.	.	.	.	.	.	.	.	.	.	.	.	.	.	.	.	.	.	.	.	.	.	.	.	.
*	*	*	*rep	*	*	*	*	*	*	*	*	*	*	*	*	*	*	*	*	*	*	*	*	*	*	*	*	*	*
4A\	.	.	16A/LL	.	8r	.	.	.	.	.	.	.	.	.	.	.	.	.	.	.	.	.	.	.	.	.	.	.	.
.	.	.	16d/	.	.	.	.	.	.	.	.	.	.	.	.	.	.	.	.	.	.	.	.	.	.	.	.	.	.
.	.	.	16f#/	.	8dd\L	.	.	.	.	.	.	.	.	.	.	.	.	.	.	.	.	.	.	.	.	.	.	.	.
.	.	.	16d/JJ	.	.	.	.	.	.	.	.	.	.	.	.	.	.	.	.	.	.	.	.	.	.	.	.	.	.
*	*	*	*Xrep	*	*	*	*	*	*	*	*	*	*	*	*	*	*	*	*	*	*	*	*	*	*	*	*	*	*
*	*	*	*rep	*	*	*	*	*	*	*	*	*	*	*	*	*	*	*	*	*	*	*	*	*	*	*	*	*	*
4r	.	.	16A/LL	.	8ff#\	.	4A\	-uſ	.	.	4f#\	-uſ	.	.	.	.	.	.	.	.	.	.	.	.	.	.	.	.	.
.	.	.	16d/	.	.	.	.	.	.	.	.	.	.	.	.	.	.	.	.	.	.	.	.	.	.	.	.	.	.
.	.	.	16f#/	.	8ff#\J	.	.	.	.	.	.	.	.	.	.	.	.	.	.	.	.	.	.	.	.	.	.	.	.
.	.	.	16d/JJ	.	.	.	.	.	.	.	.	.	.	.	.	.	.	.	.	.	.	.	.	.	.	.	.	.	.
*	*	*	*Xrep	*	*	*	*	*Xij	*	*	*	*Xij	*	*	*	*	*	*	*	*	*	*	*	*	*	*	*	*	*
!	!	!	!	!	!	!	!	!	!	!	!	!	!	!	!	!	!	!	!	!	!	!	!	!LO:LB:g=original	!	!	!	!LO:LB:g=original	!
=15	=15	=15	=15	=15	=15	=15	=15	=15	=15	=15	=15	=15	=15	=15	=15	=15	=15	=15	=15	=15	=15	=15	=15	=15	=15	=15	=15	=15	=15
4BB/	6\	.	4d/	.	4gg#X\	.	2B\	Sa-	.	2.ryy	2g#X\	Sa-	.	2dd\	Sa-	.	2.ryy	4e\	.	4e\	.	4dd\	.	4ee\	.	4dd\	.	4gg#X\	.
4BB/	.	.	4d/	.	4gg#\	.	.	.	.	.	.	.	.	.	.	.	.	4e\	.	4e\	.	4dd\	.	4ee\	.	4dd\	.	4gg#\	.
4BB/	.	.	4d/	.	4gg#\	.	4B\	-ba-	.	.	4g#\	-ba-	.	4dd\	-ba-	.	.	4e\	.	4e\	.	4dd\	.	4ee\	.	4dd\	.	4gg#\	.
!	!	!	!	!	!	!	!	!	!	!	!LO:LB:g=original	!	!	!	!	!	!	!	!	!	!	!LO:LB:g=original	!	!	!	!	!	!	!
=16	=16	=16	=16	=16	=16	=16	=16	=16	=16	=16	=16	=16	=16	=16	=16	=16	=16	=16	=16	=16	=16	=16	=16	=16	=16	=16	=16	=16	=16
!	!	!	!	!	!	!	!	!LO:MO:mod=-oth.	!	!	!	!LO:MO:mod=-oth.	!	!LO:SIC:s=2cc#;	!LO:MO:mod=-oth.	!	!	!	!	!	!	!	!	!	!	!	!	!	!
2AA/	.	.	2c#/	.	2aa\	.	2A;\	-oth	.	2.ryy	2a;\	-oth	.	2cc#\	-oth	.	2.ryy	2A/	.	2e\	.	2cc#\	.	2ee\	.	2cc#\	.	2aa\	.
4r	.	.	4r	.	4r	.	4r	.	.	.	4r	.	.	4r	.	.	.	4r	.	4r	.	4r	.	4r	.	4r	.	4r	.
!	!	!	!	!	!	!	!	!	!	!	!	!	!	!LO:LB:g=original	!	!	!	!	!	!	!	!	!	!	!	!	!	!	!
=17||	=17||	=17||	=17||	=17||	=17||	=17||	=17||	=17||	=17||	=17||	=17||	=17||	=17||	=17||	=17||	=17||	=17||	=17||	=17||	=17||	=17||	=17||	=17||	=17||	=17||	=17||	=17||	=17||	=17||
!!!OMD:
!!!OMD-mod: Allegro
!!LO:TX:a:t= :mod=Pleni
!	!	!	!	!	!	!	!	!	!	!	!	!	!	!	!	!	!	!	!	!	!LO:MO:mod=!LO&colon;DY&colon;ed=brack	!	!LO:MO:mod=!LO&colon;DY&colon;ed=brack	!	!	!	!LO:MO:mod=!LO&colon;DY&colon;ed=brack	!	!
!LO:TX:b:i:t=Pleni:mod=	!	!	!LO:TX:a:i:rj:t=Allo:mod=	!LO:DY:a:t=ffor&colon;	!LO:TX:b:i:rj:t=Pleni.:mod=	!	!	!	!	!	!	!	!	!	!	!	!	!LO:TX:b:rj:t=Pleni:mod=	!	!LO:TX:b:rj:t=Pleni:mod=	!null	!	!null	!	!	!LO:TX:b:rj:t=Pleni:mod=	!null	!LO:TX:b:i:t=Pleni:mod=	!LO:DY:a:rj:t=ffor
!LO:TX:a:i:t=Allo:mod=	!	!LO:MO:null:mod=f	!LO:TX:b:i:rj:t=Pleni:mod=	!LO:MO:mod=f	!LO:TX:a:i:rj:t=Allo:mod=	!LO:MO:null:mod=f	!LO:TX:a:i:rj:t=Allo:mod=	!	!	!	!LO:TX:a:rj:t=Allo:mod=	!	!	!LO:TX:a:rj:t=Allo:mod=	!	!	!	!LO:TX:a:i:rj:t=Allo:mod=	!LO:DY:a:rj:t=f.	!LO:TX:a:rj:t=Allo:mod=	!LO:MO:null:mod=f	!LO:TX:a:i:t=Allo:mod=	!LO:MO:null:mod=f	!LO:TX:a:rj:t=Allo:mod=	!LO:DY:a:rj	!LO:TX:a:rj:t=Allo:mod=	!LO:MO:null:mod=f	!LO:TX:a:i:t=Allo:mod=	!LO:MO:mod=f
2A\	.	.	2a/	ff	2aa\	.	2A\	Ple-	.	2.ryy	2a\	Ple-	.	2aa\	Ple-	.	2.ryy	2A/	f	2a\	.	2a/	.	2aa\	f	2aa\	.	2aa\	ff
!	!	!LO:DY:a:t=for&colon;	!	!	!	!LO:DY:a:t=for&colon;	!	!	!	!	!	!	!	!	!	!	!	!	!	!	!	!	!	!	!	!	!	!	!
!	!	!LO:MO:mod=.	!	!	!	!LO:MO:mod=.	!	!	!	!	!	!	!	!	!	!	!	!	!	!	!	!	!	!	!	!	!	!	!
8F#|\L	.	f	8f#/L	.	8ff#\L	f	8F#\L	-ni	.	.	8f#\L	-ni	.	8ff#\L	-ni	.	.	8F#/L	.	8f#\L	.	8f#/L	.	8ff#\L	.	8ff#\L	.	8fff#\L	.
8D|\J	.	.	8d/J	.	8dd\J	.	8D\J	.	.	.	8d\J	.	.	8dd\J	.	.	.	8D/J	.	8d\J	.	8d/J	.	8dd\J	.	8dd\J	.	8ddd\J	.
=18	=18	=18	=18	=18	=18	=18	=18	=18	=18	=18	=18	=18	=18	=18	=18	=18	=18	=18	=18	=18	=18	=18	=18	=18	=18	=18	=18	=18	=18
*	*	*	*	*	*	*	*	*ij	*	*	*	*ij	*	*	*ij	*	*	*	*	*	*	*	*	*	*	*	*	*	*
!	!	!	!	!	!	!	!	!LO:MO:mod=ple-	!	!	!	!LO:MO:mod=ple-	!	!	!LO:MO:mod=ple-	!	!	!	!	!	!	!	!	!	!	!	!	!	!
2E|\	.	.	2e/	.	2ee\	.	2E\	Ple-	.	2.ryy	2e\	Ple-	.	2ee\	Ple-	.	2.ryy	2e\	.	2e\	.	2e/	.	2ee\	.	2ee\	.	2eee\	.
8C#|>/L	.	.	8c#/L	.	8cc#\L	.	8C#/L	-ni	.	.	4e\	-ni	.	8cc#\L	-ni	.	.	4A/	.	4A/	.	4a/	.	8cc#\L	.	8cc#\L	.	8ccc#\L	.
*	*	*	*	*	*	*	*	*Xij	*	*	*	*Xij	*	*	*Xij	*	*	*	*	*	*	*	*	*	*	*	*	*	*
*	*	*	*	*	*custos:dd	*	*	*	*	*	*	*	*	*	*	*	*	*	*	*	*	*	*	*	*	*	*	*	*
8AA|>/J	.	.	8A/J	.	8a\J	.	8AA/J	.	.	.	.	.	.	8a\J	.	.	.	.	.	.	.	.	.	8a\J	.	8a\J	.	8aa\J	.
!	!	!	!	!	!LO:LB:g=original	!	!	!	!	!	!	!	!	!	!	!	!	!	!	!	!	!	!	!	!	!	!	!	!
=19	=19	=19	=19	=19	=19	=19	=19	=19	=19	=19	=19	=19	=19	=19	=19	=19	=19	=19	=19	=19	=19	=19	=19	=19	=19	=19	=19	=19	=19
!	!	!	!	!	!	!	!	!	!	!	!	!LO:MO:mod=ple-	!	!	!LO:MO:mod=ple-	!	!	!	!	!	!	!	!	!	!	!	!	!	!
8D|\L	.	.	8d/L	.	8dd\L	.	8D\L	ple-	.	2.ryy	8d\L	Ple-	.	8dd\L	Ple-	.	2.ryy	4d\	.	4d\	.	4d/	.	4dd\	.	4dd\	.	4ddd\	.
8C#|\	.	.	8c#/	.	8cc#\	.	8C#\J	.	.	.	8c#\J	.	.	8cc#\J	.	.	.	.	.	.	.	.	.	.	.	.	.	.	.
8D|\	.	.	8d/	.	8dd\	.	8D\L	-ni	.	.	8d\L	-ni	.	8dd\L	-ni	.	.	4r	.	4r	.	4r	.	4r	.	4r	.	4r	.
8E|\	.	.	8e/	.	8ee\	.	8E\J	.	.	.	8e\J	.	.	8ee\J	.	.	.	.	.	.	.	.	.	.	.	.	.	.	.
8F#|\	.	.	8f#/	.	8ff#\	.	8F#\L	ſunt	.	.	8f#\L	sunt	.	8ff#\L	sunt	.	.	4r	.	4r	.	4r	.	4r	.	4r	.	4r	.
!LO:SIC:v:s=8G#|\J	!	!	!	!	!	!	!LO:SIC:v:s=8G#J	!	!	!	!LO:SIC:v:s=8g#J	!	!	!LO:SIC:v:s=8gg#J	!	!	!	!	!	!	!	!	!	!	!	!	!	!	!
8G|\J	.	.	8g#X/J	.	8gg#X\J	.	8G\J	.	.	.	8g\J	.	.	8gg\J	.	.	.	.	.	.	.	.	.	.	.	.	.	.	.
=20	=20	=20	=20	=20	=20	=20	=20	=20	=20	=20	=20	=20	=20	=20	=20	=20	=20	=20	=20	=20	=20	=20	=20	=20	=20	=20	=20	=20	=20
!	!	!	!	!	!	!	!	!LO:MO:mod=cae-	!	!	!	!LO:MO:mod=cae-	!	!	!LO:MO:mod=cae-	!	!	!	!	!	!	!	!	!	!	!	!	!	!
8A|\L	.	.	8a/L	.	8aa\L	.	8A\L	Cae-	.	2.ryy	8a\L	Cae-	.	8aa\L	Cae-	.	2.ryy	4A/	.	4a\	.	4a/	.	4aa\	.	2.r	.	2.r	.
!	!	!	!LO:SIC:v:s=8g#/	!	!LO:SIC:v:s=8gg#\	!	!	!	!	!	!	!	!	!	!	!	!	!	!	!	!	!	!	!	!	!	!	!	!
8G#X|\	.	.	8g/	.	8gg\	.	8G#X\	.	.	.	8g#X\	.	.	8gg#X\	.	.	.	.	.	.	.	.	.	.	.	.	.	.	.
8B|\	.	.	8b/	.	8bb\	.	8B\	.	.	.	8b\	.	.	8bb\	.	.	.	4A/	.	4a\	.	4a/	.	4aa\	.	.	.	.	.
8A|\J	.	.	8a/J	.	8aa\J	.	8A\J	.	.	.	8a\J	.	.	8aa\J	.	.	.	.	.	.	.	.	.	.	.	.	.	.	.
4AA/	.	.	4A/	.	4a/	.	4A\	-li	.	.	4a\	-li	.	4a\	-li	.	.	4A/	.	4A/	.	4a/	.	4a/	.	.	.	.	.
!	!	!	!	!	!	!	!LO:LB:g=original	!	!	!	!	!	!	!	!	!	!	!	!	!	!	!	!	!	!	!	!	!	!
=21	=21	=21	=21	=21	=21	=21	=21	=21	=21	=21	=21	=21	=21	=21	=21	=21	=21	=21	=21	=21	=21	=21	=21	=21	=21	=21	=21	=21	=21
!	!	!	!	!	!	!	!	!LO:MO:mod=ple-	!	!	!	!	!	!	!LO:MO:mod=ple-	!	!	!	!	!	!	!	!	!	!	!	!	!	!
4A|\	.	.	4a/	.	4aa\	.	4A\	Ple-	.	2.ryy	4a\	ple-	.	4aa\	Ple-	.	2.ryy	4A/	.	4a\	.	4a/	.	4aa\	.	4aa\	.	4aa\	.
4A|\	.	.	4a/	.	4aa\	.	4A\	-ni	.	.	4a\	-ni	.	4aa\	-ni	.	.	4A/	.	4a\	.	4a/	.	4aa\	.	4aa\	.	4aa\	.
8F#|\L	.	.	8f#/L	.	8ff#\L	.	8F#\L	ſunt	.	.	8f#\L	sunt	.	8ff#\L	sunt	.	.	4d\	.	8f#\L	.	8f#/L	.	8ff#\L	.	8ff#\L	.	8fff#\L	.
8D|\J	.	.	8d/J	.	8dd\J	.	8D\J	.	.	.	8d\J	.	.	8dd\J	.	.	.	.	.	8d\J	.	8d/J	.	8dd\J	.	8dd\J	.	8ddd\J	.
=22	=22	=22	=22	=22	=22	=22	=22	=22	=22	=22	=22	=22	=22	=22	=22	=22	=22	=22	=22	=22	=22	=22	=22	=22	=22	=22	=22	=22	=22
!	!	!	!	!	!	!	!	!LO:MO:mod=cae-	!	!	!	!LO:MO:mod=cae-	!	!	!LO:MO:mod=cae-	!	!	!	!	!	!	!	!	!	!	!	!	!	!
4E|\	.	.	4e/	.	4ee\	.	4E\	Cae-	.	2.ryy	4e\	Cae-	.	4ee\	Cae-	.	2.ryy	4e\	.	4e\	.	4e/	.	4ee\	.	4ee\	.	4eee\	.
4E|\	.	.	4e/	.	4ee\	.	4E\	-li	.	.	4e\	-li	.	4ee\	-li	.	.	4e\	.	4e\	.	4e/	.	4ee\	.	4ee\	.	4eee\	.
*	*	*	*	*	*	*	*	*	*	*	*custos:d	*	*	*	*	*	*	*	*	*	*	*	*	*	*	*	*	*	*
8C#|>/L	.	.	8c#/L	.	8cc#\L	.	8C#/L	et	.	.	4e\	et	.	8cc#\L	et	.	.	4A/	.	4A/	.	4a/	.	8cc#\L	.	8cc#\L	.	8ccc#\L	.
*	*	*	*custos:d	*	*	*	*	*	*	*	*	*	*	*	*	*	*	*	*	*	*	*	*	*	*	*	*	*	*
8AA|>/J	.	.	8A/J	.	8a\J	.	8AA/J	.	.	.	.	.	.	8a\J	.	.	.	.	.	.	.	.	.	8a\J	.	8a\J	.	8aa\J	.
!	!	!	!LO:LB:g=original	!	!	!	!	!	!	!	!LO:LB:g=original	!	!	!	!	!	!	!	!	!	!	!	!	!	!	!	!	!	!
=23	=23	=23	=23	=23	=23	=23	=23	=23	=23	=23	=23	=23	=23	=23	=23	=23	=23	=23	=23	=23	=23	=23	=23	=23	=23	=23	=23	=23	=23
8D|\L	.	.	8d/L	.	8dd\L	.	8D\L	ter-	.	2.ryy	8d\L	ter-	.	8dd\L	ter-	.	2.ryy	4d\	.	4d\	.	4f#/	.	4dd\	.	8dd\L	.	8ddd\L	.
8C#|\	.	.	8c#/	.	8cc#\	.	8C#\	.	.	.	8c#\	.	.	8cc#\	.	.	.	.	.	.	.	.	.	.	.	8cc#\	.	8ccc#\	.
8D|\	.	.	8d/	.	8dd\	.	8D\	.	.	.	8d\	.	.	8dd\	.	.	.	4d\	.	4d\	.	4f#/	.	4dd\	.	8dd\	.	8ddd\	.
8E|\	.	.	8e/	.	8ee\	.	8E\	.	.	.	8e\	.	.	8ee\	.	.	.	.	.	.	.	.	.	.	.	8ee\	.	8eee\	.
!	!	!	!	!	!	!	!	!	!	!	!	!	!	!	!	!	!	!	!	!	!	!	!	!LO:SIC:v:s=4cc#	!	!	!	!	!
8F#|\	.	.	8f#/	.	8ff#\	.	8F#\	.	.	.	8f#\	.	.	8ff#\	.	.	.	4e\	.	4e\	.	4a/	.	4ee\	.	8ff#\	.	8fff#\	.
8E|\J	.	.	8e/J	.	8ee\J	.	8E\J	.	.	.	8e\J	.	.	8ee\J	.	.	.	.	.	.	.	.	.	.	.	8ee\J	.	8eee\J	.
!LO:LB:g=original	!	!	!	!	!	!	!	!	!	!	!	!	!	!LO:LB:g=original	!	!	!	!	!	!	!	!	!	!	!	!LO:LB:g=original	!	!	!
=24	=24	=24	=24	=24	=24	=24	=24	=24	=24	=24	=24	=24	=24	=24	=24	=24	=24	=24	=24	=24	=24	=24	=24	=24	=24	=24	=24	=24	=24
4D\	.	.	4d/	.	4dd\	.	2D\	-ra	.	2.ryy	2d\	-ra	.	2dd\	-ra	.	2.ryy	2d\	.	2d\	.	2f#/	.	2.dd\	.	4dd\	.	2ddd\	.
4DD/	.	.	4d/	.	4d/	.	.	.	.	.	.	.	.	.	.	.	.	.	.	.	.	.	.	.	.	4r	.	.	.
4AA/	.	.	4a/	.	4a/	.	4r	.	.	.	4r	.	.	4r	.	.	.	4r	.	4r	.	4a/	.	.	.	4r	.	4r	.
!	!	!	!	!	!	!	!	!	!	!	!	!	!	!	!	!	!	!LO:LB:g=original	!	!LO:LB:g=original	!	!	!	!	!	!	!	!	!
=25	=25	=25	=25	=25	=25	=25	=25	=25	=25	=25	=25	=25	=25	=25	=25	=25	=25	=25	=25	=25	=25	=25	=25	=25	=25	=25	=25	=25	=25
*8ba	*	*	*	*	*	*	*	*	*	*	*	*	*	*	*	*	*	*	*	*	*	*	*	*	*	*	*	*	*
!	!	!	!	!	!	!	!	!LO:MO:mod=ple-	!	!	!	!	!	!	!LO:MO:mod=ple-	!	!	!	!	!	!	!	!	!	!	!	!	!	!
2.DD/	.	.	4a 4f#/	.	8dd\L	.	2.D\	Ple-	.	2.ryy	2.f#\	ple-	.	2.dd\	Ple-	.	2.ryy	2.F#/	.	2.d\	.	2.f#/	.	2.dd\	.	0.r	.	0.r	.
.	.	.	.	.	8cc#\	.	.	.	.	.	.	.	.	.	.	.	.	.	.	.	.	.	.	.	.	.	.	.	.
.	.	.	4a 4f#/	.	8dd\	.	.	.	.	.	.	.	.	.	.	.	.	.	.	.	.	.	.	.	.	.	.	.	.
.	.	.	.	.	8ee\	.	.	.	.	.	.	.	.	.	.	.	.	.	.	.	.	.	.	.	.	.	.	.	.
.	.	.	4a 4f#/	.	8ff#\	.	.	.	.	.	.	.	.	.	.	.	.	.	.	.	.	.	.	.	.	.	.	.	.
.	.	.	.	.	8ee\J	.	.	.	.	.	.	.	.	.	.	.	.	.	.	.	.	.	.	.	.	.	.	.	.
=26	=26	=26	=26	=26	=26	=26	=26	=26	=26	=26	=26	=26	=26	=26	=26	=26	=26	=26	=26	=26	=26	=26	=26	=26	=26	=26	=26	=26	=26
*	*	*	*^	*	*	*	*	*	*	*	*	*	*	*	*	*	*	*	*	*	*	*	*	*	*	*	*	*	*
2.DD/	.	.	4a/	2.f#\	.	8dd\L	.	2D\	-ni	.	2.ryy	2f#\	-ni	.	2dd\	-ni	.	2.ryy	2.F#/	.	4d\	.	2.f#/	.	2.dd\	.	.	.	.	.
.	.	.	.	.	.	8cc#\	.	.	.	.	.	.	.	.	.	.	.	.	.	.	.	.	.	.	.	.	.	.	.	.
.	.	.	4a/	.	.	8dd\	.	.	.	.	.	.	.	.	.	.	.	.	.	.	8d\L	.	.	.	.	.	.	.	.	.
.	.	.	.	.	.	8ee\	.	.	.	.	.	.	.	.	.	.	.	.	.	.	8e\	.	.	.	.	.	.	.	.	.
.	.	.	4a/	.	.	8ff#\	.	4D\	ſunt	.	.	4f#\	sunt	.	4dd\	ſunt	.	.	.	.	8f#\	.	.	.	.	.	.	.	.	.
.	.	.	.	.	.	8gg\J	.	.	.	.	.	.	.	.	.	.	.	.	.	.	8g\J	.	.	.	.	.	.	.	.	.
=27	=27	=27	=27	=27	=27	=27	=27	=27	=27	=27	=27	=27	=27	=27	=27	=27	=27	=27	=27	=27	=27	=27	=27	=27	=27	=27	=27	=27	=27	=27
!	!	!	!	!	!	!	!	!	!LO:MO:mod=cae-	!	!	!	!LO:MO:mod=cae-	!	!	!LO:MO:mod=cae-	!	!	!	!	!	!	!	!	!	!	!	!	!	!
2.DD/	.	.	4a/	2.f#\	.	8aa\L	.	2.D\	Cae-	.	2.ryy	2.f#\	Cae-	.	2.dd\	Cae-	.	2.ryy	2.A/	.	2a\	.	2a/	.	2aa\	.	.	.	.	.
.	.	.	.	.	.	8gg#X\	.	.	.	.	.	.	.	.	.	.	.	.	.	.	.	.	.	.	.	.	.	.	.	.
.	.	.	4a/	.	.	8aa\	.	.	.	.	.	.	.	.	.	.	.	.	.	.	.	.	.	.	.	.	.	.	.	.
.	.	.	.	.	.	8bb\	.	.	.	.	.	.	.	.	.	.	.	.	.	.	.	.	.	.	.	.	.	.	.	.
.	.	.	4a/	.	.	8gg#\	.	.	.	.	.	.	.	.	.	.	.	.	.	.	8g#X\L	.	8g#X/L	.	8gg#X\L	.	.	.	.	.
.	.	.	.	.	.	8ee\J	.	.	.	.	.	.	.	.	.	.	.	.	.	.	8e\J	.	8e/J	.	8ee\J	.	.	.	.	.
=28	=28	=28	=28	=28	=28	=28	=28	=28	=28	=28	=28	=28	=28	=28	=28	=28	=28	=28	=28	=28	=28	=28	=28	=28	=28	=28	=28	=28	=28	=28
2.DD/	.	.	4a/	2.f#\	.	4aa\	.	2D\	-li	.	2.ryy	2f#\	-li	.	2dd\	-li	.	2.ryy	2.A/	.	4a\	.	4a/	.	4aa\	.	.	.	.	.
.	.	.	4a/	.	.	4a/	.	.	.	.	.	.	.	.	.	.	.	.	.	.	4A/	.	4r	.	4r	.	.	.	.	.
.	.	.	4a/	.	.	4a/	.	4D\	et	.	.	4f#\	et	.	4dd\	et	.	.	.	.	4A/	.	4r	.	4r	.	.	.	.	.
!	!	!	!	!	!	!LO:LB:g=original	!	!	!	!	!	!	!	!	!	!	!	!	!	!	!	!	!	!	!	!	!	!	!	!
=29	=29	=29	=29	=29	=29	=29	=29	=29	=29	=29	=29	=29	=29	=29	=29	=29	=29	=29	=29	=29	=29	=29	=29	=29	=29	=29	=29	=29	=29	=29
!	!	!	!	!	!	!	!	!	!	!	!	!	!	!	!	!	!	!	!	!	!	!	!	!	!LO:TX:t=P:problem=niekompletny takt	!	!	!	!	!
2.DD/	.	.	4a/	2.f#\	.	8dd\L	.	2.D\	ter-	.	2.ryy	2.f#\	ter-	.	2.dd\	ter-	.	2.ryy	2.d\	.	2.f#\	.	2.f#/	.	2.dd\	.	1.r	.	1.r	.
.	.	.	.	.	.	8cc#\	.	.	.	.	.	.	.	.	.	.	.	.	.	.	.	.	.	.	.	.	.	.	.	.
.	.	.	4a/	.	.	8dd\	.	.	.	.	.	.	.	.	.	.	.	.	.	.	.	.	.	.	.	.	.	.	.	.
.	.	.	.	.	.	8ee\	.	.	.	.	.	.	.	.	.	.	.	.	.	.	.	.	.	.	.	.	.	.	.	.
.	.	.	4a/	.	.	8ff#\	.	.	.	.	.	.	.	.	.	.	.	.	.	.	.	.	.	.	.	.	.	.	.	.
.	.	.	.	.	.	8ee\J	.	.	.	.	.	.	.	.	.	.	.	.	.	.	.	.	.	.	.	.	.	.	.	.
!	!	!	!	!	!	!	!	!	!	!	!	!	!	!	!	!	!	!	!	!	!	!	!	!	!LO:LB:g=original	!	!	!	!	!
=30	=30	=30	=30	=30	=30	=30	=30	=30	=30	=30	=30	=30	=30	=30	=30	=30	=30	=30	=30	=30	=30	=30	=30	=30	=30	=30	=30	=30	=30	=30
2.DD/	.	.	4a/	2.f#\	.	8dd\L	.	2.D\	-ra	.	2.ryy	2.f#\	-ra	.	2.dd\	-ra	.	2.ryy	2.d\	.	2.f#\	.	2.f#/	.	2.dd\	.	.	.	.	.
.	.	.	.	.	.	8cc#\	.	.	.	.	.	.	.	.	.	.	.	.	.	.	.	.	.	.	.	.	.	.	.	.
.	.	.	4a/	.	.	8dd\	.	.	.	.	.	.	.	.	.	.	.	.	.	.	.	.	.	.	.	.	.	.	.	.
.	.	.	.	.	.	8ee\	.	.	.	.	.	.	.	.	.	.	.	.	.	.	.	.	.	.	.	.	.	.	.	.
.	.	.	4a/	.	.	8ff#\	.	.	.	.	.	.	.	.	.	.	.	.	.	.	.	.	.	.	.	.	.	.	.	.
.	.	.	.	.	.	8gg#X\J	.	.	.	.	.	.	.	.	.	.	.	.	.	.	.	.	.	.	.	.	.	.	.	.
=31	=31	=31	=31	=31	=31	=31	=31	=31	=31	=31	=31	=31	=31	=31	=31	=31	=31	=31	=31	=31	=31	=31	=31	=31	=31	=31	=31	=31	=31	=31
2.DD/	.	.	4a/	4f#\	.	8aa\L	.	4D\	glo-	.	2.ryy	4f#\	glo-	.	2dd\	glo-	.	2.ryy	4d\	.	4f#\	.	2f#/	.	2dd\	.	2.r	.	2.r	.
.	.	.	.	.	.	8bb\	.	.	.	.	.	.	.	.	.	.	.	.	.	.	.	.	.	.	.	.	.	.	.	.
.	.	.	4a/	4e\	.	8gg\	.	4D\	-ri-	.	.	4e\	-ri-	.	.	.	.	.	2A/	.	2e\	.	.	.	.	.	.	.	.	.
.	.	.	.	.	.	8ee\	.	.	.	.	.	.	.	.	.	.	.	.	.	.	.	.	.	.	.	.	.	.	.	.
.	.	.	4a/	4e\	.	8cc#\	.	4D\	-a	.	.	4e\	-a	.	4dd\	-ri-	.	.	.	.	.	.	4a/	.	4ee\	.	.	.	.	.
.	.	.	.	.	.	8ee\J	.	.	.	.	.	.	.	.	.	.	.	.	.	.	.	.	.	.	.	.	.	.	.	.
*X8ba	*	*	*	*	*	*	*	*	*	*	*	*	*	*	*	*	*	*	*	*	*	*	*	*	*	*	*	*	*	*
=32	=32	=32	=32	=32	=32	=32	=32	=32	=32	=32	=32	=32	=32	=32	=32	=32	=32	=32	=32	=32	=32	=32	=32	=32	=32	=32	=32	=32	=32	=32
4D\	.	.	4a/	4f#\	.	4dd\	.	2D\	tu-	.	2.ryy	2f#\	tu-	.	2.dd\	-a	.	2.ryy	2d\	.	2f#\	.	4f#/	.	4dd\	.	4r	.	4r	.
!	!	!	!	!	!	!	!	!	!	!	!	!	!	!	!	!	!	!	!	!	!	!	!LO:TX:t=P:problem=niekompletny takt	!	!	!	!	!	!	!
4d\	.	.	4a/	4f#\	.	4r	.	.	.	.	.	.	.	.	.	.	.	.	.	.	.	.	4r	.	4r	.	4r	.	4r	.
!	!	!	!	!	!	!	!	!	!	!	!	!	!	!	!	!	!	!	!	!	!	!	!LO:LB:g=original	!	!	!	!	!	!	!
4D\	.	.	4a/	4f#\	.	8ff#\L	.	4D\	-a	.	.	4f#\	-a	.	.	.	.	.	4d\	.	4f#\	.	4r	.	4ff#\	.	4aa\	.	4fff#\	.
.	.	.	.	.	.	8dd\J	.	.	.	.	.	.	.	.	.	.	.	.	.	.	.	.	.	.	.	.	.	.	.	.
!	!	!	!	!	!	!	!	!	!	!	!	!	!	!	!	!	!	!	!	!	!	!	!	!	!	!	!	!	!LO:LB:g=original	!
=33	=33	=33	=33	=33	=33	=33	=33	=33	=33	=33	=33	=33	=33	=33	=33	=33	=33	=33	=33	=33	=33	=33	=33	=33	=33	=33	=33	=33	=33	=33
*	*	*	*	*	*	*	*	*	*	*	*	*custos:a	*	*	*	*	*	*	*	*	*	*	*	*	*	*	*	*	*	*
!	!	!	!	!	!	!	!	!	!	!	!	!	!LO:MO:mod=ple-	!	!	!LO:MO:mod=ple-	!	!	!	!	!	!	!	!	!	!	!	!	!	!
4C#/	6	.	4a/	4e\	.	8aa\L	.	4A\	ple-	.	2.ryy	4a\	Ple-	.	4cc#\	Ple-	.	2.ryy	2A/	.	2e\	.	2a/	.	2ee\	.	2aa\	.	2eee\	.
.	.	.	.	.	.	8ee\	.	.	.	.	.	.	.	.	.	.	.	.	.	.	.	.	.	.	.	.	.	.	.	.
!	!	!	!	!	!	!	!	!	!	!	!	!LO:LB:g=original	!	!	!	!	!	!	!	!	!	!	!	!	!	!	!	!	!	!
4AA/	.	.	4a/	4e\	.	8cc#\	.	4c#\	-ni	.	.	4a\	-ni	.	4ee\	-ni	.	.	.	.	.	.	.	.	.	.	.	.	.	.
.	.	.	.	.	.	8a\	.	.	.	.	.	.	.	.	.	.	.	.	.	.	.	.	.	.	.	.	.	.	.	.
!	!	!	!	!	!	!	!	!LO:LB:g=original	!	!	!	!	!	!	!	!	!	!	!	!	!	!	!	!	!	!	!	!	!	!
4D/	.	.	4a/	4f#\	.	8ff#\	.	4d\	ſunt	.	.	4a\	sunt	.	4ff#\	sunt	.	.	4d\	.	4f#\	.	4a/	.	4ff#\	.	4aa\	.	4fff#\	.
.	.	.	.	.	.	8dd\J	.	.	.	.	.	.	.	.	.	.	.	.	.	.	.	.	.	.	.	.	.	.	.	.
=34	=34	=34	=34	=34	=34	=34	=34	=34	=34	=34	=34	=34	=34	=34	=34	=34	=34	=34	=34	=34	=34	=34	=34	=34	=34	=34	=34	=34	=34	=34
!	!	!	!	!	!	!	!	!	!LO:MO:mod=cae-	!	!	!	!LO:MO:mod=cae-	!	!	!LO:MO:mod=cae-	!	!	!	!	!	!	!	!	!	!	!	!	!	!
4C#/	6	.	4a/	4e\	.	8aa\L	.	4A\	Cae-	.	2.ryy	4a\	Cae-	.	4ee\	Cae-	.	2.ryy	2A/	.	2e\	.	2a/	.	2ee\	.	2aa\	.	2eee\	.
.	.	.	.	.	.	8ee\	.	.	.	.	.	.	.	.	.	.	.	.	.	.	.	.	.	.	.	.	.	.	.	.
4AA/	.	.	4a/	4e\	.	8cc#\	.	4c#\	-li	.	.	4a\	-li	.	4ee\	-li	.	.	.	.	.	.	.	.	.	.	.	.	.	.
.	.	.	.	.	.	8a\	.	.	.	.	.	.	.	.	.	.	.	.	.	.	.	.	.	.	.	.	.	.	.	.
4D\	.	.	4a/	4f#\	.	8ff#\	.	4d\	et	.	.	4a\	et	.	4ff#\	et	.	.	4d\	.	4f#\	.	4a/	.	4ff#\	.	4aa\	.	4fff#\	.
.	.	.	.	.	.	8dd\J	.	.	.	.	.	.	.	.	.	.	.	.	.	.	.	.	.	.	.	.	.	.	.	.
=35	=35	=35	=35	=35	=35	=35	=35	=35	=35	=35	=35	=35	=35	=35	=35	=35	=35	=35	=35	=35	=35	=35	=35	=35	=35	=35	=35	=35	=35	=35
!	!	!	!	!	!	!	!	!LO:SIC:s=(4A	!	!	!	!	!	!	!	!	!	!	!	!	!	!	!	!	!	!	!	!	!	!
4AA/	.	.	4a/	4e\	.	8aa\L	.	4A\	ter-	.	2.ryy	2.a\	ter-	.	4ee\	ter-	.	2.ryy	2A/	.	2e\	.	2a/	.	2ee\	.	2aa\	.	4eee\	.
.	.	.	.	.	.	8a\	.	.	.	.	.	.	.	.	.	.	.	.	.	.	.	.	.	.	.	.	.	.	.	.
!	!	!	!	!	!	!	!	!	!	!	!	!	!	!	!	!LO:MO:mod=-ra	!	!	!	!	!	!	!	!	!	!	!	!	!	!
4C#/	5	.	4a/	4e\	.	8gg\	.	4c#\	.	.	.	.	.	.	4ee\	-a	.	.	.	.	.	.	.	.	.	.	.	.	4eee\	.
.	.	.	.	.	.	8ee\	.	.	.	.	.	.	.	.	.	.	.	.	.	.	.	.	.	.	.	.	.	.	.	.
!	!	!	!	!	!	!	!	!LO:SIC:s=4d)	!	!	!	!	!	!	!	!	!	!	!	!	!	!	!	!	!	!	!	!	!	!
4D/	.	.	4a/	4f#\	.	8ff#\	.	4d\	.	.	.	.	.	.	4dd\	et	.	.	4d\	.	4f#\	.	4a/	.	4ff#\	.	4aa\	.	4ddd\	.
.	.	.	.	.	.	8dd\J	.	.	.	.	.	.	.	.	.	.	.	.	.	.	.	.	.	.	.	.	.	.	.	.
!	!	!	!	!	!	!	!	!	!	!	!	!	!	!	!LO:LB:g=original	!	!	!	!	!	!	!	!	!	!	!	!	!	!	!
=36	=36	=36	=36	=36	=36	=36	=36	=36	=36	=36	=36	=36	=36	=36	=36	=36	=36	=36	=36	=36	=36	=36	=36	=36	=36	=36	=36	=36	=36	=36
4A\	.	.	4a/	4e\	.	8cc#\L	.	2.A\	-ra	.	2.ryy	2.a\	-ra	.	(4cc#\	ter-	.	2.ryy	2A/	.	4e\	.	4a\	.	4cc#\	.	4aa\	.	4ccc#\	.
.	.	.	.	.	.	8a\	.	.	.	.	.	.	.	.	.	.	.	.	.	.	.	.	.	.	.	.	.	.	.	.
4E\	.	.	4a/	4d\	.	8dd\	.	.	.	.	.	.	.	.	4dd\)	.	.	.	.	.	4d\	.	4b\	.	4dd\	.	4aa\	.	4ddd\	.
.	.	.	.	.	.	8a\	.	.	.	.	.	.	.	.	.	.	.	.	.	.	.	.	.	.	.	.	.	.	.	.
*	*	*	*custos:a	*custos:e	*	*	*	*	*	*	*	*	*	*	*	*	*	*	*	*	*	*	*	*	*	*	*	*	*	*
4AA/	.	.	4a/	4e\	.	8ee\	.	.	.	.	.	.	.	.	4ee\	-ra	.	.	4A/	.	4e\	.	4cc#\	.	4ee\	.	4aa\	.	4eee\	.
.	.	.	.	.	.	8a\J	.	.	.	.	.	.	.	.	.	.	.	.	.	.	.	.	.	.	.	.	.	.	.	.
*	*	*	*v	*v	*	*	*	*	*	*	*	*	*	*	*	*	*	*	*	*	*	*	*	*	*	*	*	*	*	*
!	!	!	!LO:LB:g=original	!	!	!	!	!	!	!	!	!	!	!	!	!	!	!	!	!	!	!	!	!	!	!	!	!	!
=37	=37	=37	=37	=37	=37	=37	=37	=37	=37	=37	=37	=37	=37	=37	=37	=37	=37	=37	=37	=37	=37	=37	=37	=37	=37	=37	=37	=37	=37
4A\	.	.	4a 4e/	.	8aa\L	.	4A\	glo-	.	2.ryy	4a\	glo-	.	4ee\	glo-	.	2.ryy	2A/	.	2e\	.	2a/	.	2ee\	.	2aa\	.	2eee\	.
.	.	.	.	.	8ee\	.	.	.	.	.	.	.	.	.	.	.	.	.	.	.	.	.	.	.	.	.	.	.	.
4c#\	6	.	4a 4e/	.	8cc#\	.	4c#\	-ri-	.	.	4a\	-ri-	.	4ee\	-ri-	.	.	.	.	.	.	.	.	.	.	.	.	.	.
.	.	.	.	.	8a\	.	.	.	.	.	.	.	.	.	.	.	.	.	.	.	.	.	.	.	.	.	.	.	.
4d\	.	.	4a 4f#/	.	8ff#\	.	4d\	-a	.	.	4a\	-a	.	4ff#\	-a	.	.	4d\	.	4f#\	.	4a/	.	4ff#\	.	4aa\	.	4fff#\	.
.	.	.	.	.	8dd\J	.	.	.	.	.	.	.	.	.	.	.	.	.	.	.	.	.	.	.	.	.	.	.	.
!	!	!	!	!	!	!	!	!	!	!	!	!	!	!	!	!	!	!	!	!LO:LB:g=original	!	!	!	!	!	!	!	!	!
=38	=38	=38	=38	=38	=38	=38	=38	=38	=38	=38	=38	=38	=38	=38	=38	=38	=38	=38	=38	=38	=38	=38	=38	=38	=38	=38	=38	=38	=38
*	*	*	*	*	*	*	*	*	*	*	*	*ij	*	*	*	*	*	*	*	*	*	*	*	*	*	*	*	*	*
4A\	.	.	4a 4e/	.	8gg\L	.	(4A\	tu-	.	2.ryy	4a\	glo-	.	(4gg\	tu-	.	2.ryy	4e\	.	4g\	.	2a/	.	4gg\	.	2aa\	.	4ggg\	.
.	.	.	.	.	8ee\	.	.	.	.	.	.	.	.	.	.	.	.	.	.	.	.	.	.	.	.	.	.	.	.
4c#\	6	.	4a 4e/	.	8cc#\	.	4c#\)	.	.	.	4a\	-ri-	.	4ee\)	.	.	.	4A/	.	4e\	.	.	.	4ee\	.	.	.	4eee\	.
.	.	.	.	.	8a\J	.	.	.	.	.	.	.	.	.	.	.	.	.	.	.	.	.	.	.	.	.	.	.	.
!	!	!	!	!	!LO:LB:g=original	!	!	!	!	!	!	!	!	!	!	!	!	!	!	!	!	!	!	!	!	!	!	!	!
4d\	.	.	4a 4f#/	.	8ff#\L	.	4d\	-a	.	.	4a\	-a	.	4ff#\	-a	.	.	4d\	.	4f#\	.	4a/	.	4ff#\	.	4aa\	.	4fff#\	.
.	.	.	.	.	8dd\J	.	.	.	.	.	.	.	.	.	.	.	.	.	.	.	.	.	.	.	.	.	.	.	.
!	!	!	!	!	!	!	!	!	!	!	!	!	!	!	!	!	!	!LO:LB:g=original	!	!	!	!	!	!	!	!	!	!	!
=39	=39	=39	=39	=39	=39	=39	=39	=39	=39	=39	=39	=39	=39	=39	=39	=39	=39	=39	=39	=39	=39	=39	=39	=39	=39	=39	=39	=39	=39
4A\	.	.	4a 4e/	.	8gg\L	.	4A\	glo-	.	2.ryy	4a\	glo-	.	4gg\	glo-	.	2.ryy	4e\	.	4g\	.	2a/	.	2ee\	.	2aa\	.	4ggg\	.
.	.	.	.	.	8ee\	.	.	.	.	.	.	.	.	.	.	.	.	.	.	.	.	.	.	.	.	.	.	.	.
4c#\	6	.	4a 4e/	.	8cc#\	.	4c#\	-ri-	.	.	4a\	-ri-	.	4ee\	-ri-	.	.	4A/	.	4e\	.	.	.	.	.	.	.	4eee\	.
.	.	.	.	.	8a\	.	.	.	.	.	.	.	.	.	.	.	.	.	.	.	.	.	.	.	.	.	.	.	.
*custos:G	*	*	*	*	*	*	*	*	*	*	*	*	*	*	*	*	*	*	*	*	*	*	*	*	*	*	*	*	*
4d\	.	.	4a 4f#/	.	8ff#\	.	4d\	-a	.	.	4a\	-a	.	4ff#\	-a	.	.	4d\	.	4f#\	.	4a/	.	4ff#\	.	4aa\	.	4fff#\	.
*	*	*	*	*	*	*	*	*	*	*	*	*Xij	*	*	*	*	*	*	*	*	*	*	*	*	*	*	*	*	*
.	.	.	.	.	8dd\J	.	.	.	.	.	.	.	.	.	.	.	.	.	.	.	.	.	.	.	.	.	.	.	.
!LO:LB:g=original	!	!	!	!	!	!	!	!	!	!	!	!	!	!	!	!	!	!	!	!	!	!	!	!	!	!	!	!	!
=40	=40	=40	=40	=40	=40	=40	=40	=40	=40	=40	=40	=40	=40	=40	=40	=40	=40	=40	=40	=40	=40	=40	=40	=40	=40	=40	=40	=40	=40
!	!	!	!	!	!	!	!LO:SIC:s=(4G	!	!	!	!	!	!	!	!	!	!	!	!	!	!	!	!	!	!	!	!	!	!
4G\	.	.	4b/	.	8bb\L	.	4G\	tu-	.	2.ryy	(4g\	tu-	.	(4gg\	tu-	.	2.ryy	4d\	.	4g\	.	4dd\	.	4gg\	.	4bb\	.	4ggg\	.
.	.	.	.	.	8gg\	.	.	.	.	.	.	.	.	.	.	.	.	.	.	.	.	.	.	.	.	.	.	.	.
!	!	!	!	!	!	!	!LO:SIC:s=2A)	!	!	!	!LO:SIC:s=4f#	!	!	!LO:SIC:s=4ff#	!	!	!	!	!	!	!	!	!	!	!	!	!	!	!
4A\	.	.	8a/L	.	8ff#\	.	2A\	.	.	.	4f#\)	.	.	4ff#\)	.	.	.	4d\	.	4f#\	.	4dd\	.	4ff#\	.	4aa\	.	4fff#\	.
.	.	.	8f#/	.	8dd\	.	.	.	.	.	.	.	.	.	.	.	.	.	.	.	.	.	.	.	.	.	.	.	.
*	*	*	*	*	*	*	*	*	*	*	*custos:f	*	*	*	*	*	*	*	*	*	*	*	*	*	*	*	*	*	*
!	!	!	!	!	!	!	!	!	!	!	!LO:SIC:s=4e)	!	!	!LO:SIC:s=4ee)	!	!	!	!	!	!	!	!	!	!	!	!	!	!	!
4AA/	.	.	8g/	.	8ee\	.	.	.	.	.	4e\	.	.	4ee\	.	.	.	4A/	.	4e\	.	4cc#\	.	4ee\	.	4gg\	.	4eee\	.
.	.	.	8e/J	.	8cc#\J	.	.	.	.	.	.	.	.	.	.	.	.	.	.	.	.	.	.	.	.	.	.	.	.
!	!	!	!	!	!	!	!	!	!	!	!LO:LB:g=original	!	!	!	!	!	!	!	!	!	!	!	!	!	!	!	!	!	!
=41	=41	=41	=41	=41	=41	=41	=41	=41	=41	=41	=41	=41	=41	=41	=41	=41	=41	=41	=41	=41	=41	=41	=41	=41	=41	=41	=41	=41	=41
!	!	!	!	!	!	!	!	!LO:MO:mod=-a.	!	!	!	!LO:MO:mod=-a.	!	!	!LO:MO:mod=-a.	!	!	!	!	!	!	!	!	!	!	!	!	!	!
4D 4DD/	.	.	4f#/	.	4dd\	.	4D\	-a	.	2.ryy	2f#\	-a	.	4dd\	-a	.	2.ryy	2F#/	.	2d\	.	4dd\	.	4dd\	.	2ff#\	.	2ddd\	.
4r	.	.	4r	.	4r	.	4r	.	.	.	.	.	.	4r	.	.	.	.	.	.	.	4r	.	4r	.	.	.	.	.
4A\|	.	.	4r	.	4r	.	4A\	O-	.	.	4r	.	.	4r	.	.	.	4r	.	4r	.	4r	.	4r	.	4r	.	4r	.
!	!	!	!	!	!	!	!	!	!	!	!	!	!	!	!	!	!	!	!	!	!	!	!	!	!	!LO:LB:g=original	!	!	!
=42	=42	=42	=42	=42	=42	=42	=42	=42	=42	=42	=42	=42	=42	=42	=42	=42	=42	=42	=42	=42	=42	=42	=42	=42	=42	=42	=42	=42	=42
!	!	!	!	!	!	!	!	!	!	!	!	!	!	!	!	!	!	!LO:TX:b:t=Pauſ.:mod=	!	!LO:TX:b:t=Pauſ.:mod=	!	!LO:TX:a:t=24:mod=	!	!LO:TX:a:t=24:mod=	!	!LO:TX:b:t=Pauſ.:mod=	!	!	!
!	!	!	!	!	!LO:TX:a:t=5:mod=	!	!	!	!	!	!LO:TX:a:t=11:mod=	!	!	!	!	!	!	!LO:TX:a:t=23:mod=	!	!LO:TX:a:t=23:mod=	!	!LO:TX:b:t=Pauſ.:mod=	!	!LO:TX:b:t=Pauſ.:mod=	!	!LO:TX:a:t=24:mod=	!	!	!
4F#\|	.	.	0.r	.	0.r	.	4F#\	-ſan-	.	2.ryy	0.r	.	.	0.r	.	.	2.ryy	2.r	.	2.r	.	2.r	.	2.r	.	2.r	.	0.r	.
8F#\L|	.	.	.	.	.	.	8F#\L	.	.	.	.	.	.	.	.	.	.	.	.	.	.	.	.	.	.	.	.	.	.
8D\|	.	.	.	.	.	.	8D\	.	.	.	.	.	.	.	.	.	.	.	.	.	.	.	.	.	.	.	.	.	.
8G#X\|	.	.	.	.	.	.	8G#X\	.	.	.	.	.	.	.	.	.	.	.	.	.	.	.	.	.	.	.	.	.	.
8E\J|	.	.	.	.	.	.	8E\J	.	.	.	.	.	.	.	.	.	.	.	.	.	.	.	.	.	.	.	.	.	.
=43	=43	=43	=43	=43	=43	=43	=43	=43	=43	=43	=43	=43	=43	=43	=43	=43	=43	=43	=43	=43	=43	=43	=43	=43	=43	=43	=43	=43	=43
4A\|	.	.	.	.	.	.	4A\	-na	.	2.ryy	.	.	.	.	.	.	2.ryy	2.r	.	2.r	.	2.r	.	2.r	.	2.r	.	.	.
8A\L|	.	.	.	.	.	.	8A\L	in	.	.	.	.	.	.	.	.	.	.	.	.	.	.	.	.	.	.	.	.	.
!	!	!	!	!	!	!	!LO:SIC:s=8BJ	!	!	!	!	!	!	!	!	!	!	!	!	!	!	!	!	!	!	!	!	!	!
8B\|	.	.	.	.	.	.	8B\	.	.	.	.	.	.	.	.	.	.	.	.	.	.	.	.	.	.	.	.	.	.
!	!	!	!	!	!	!	!LO:SIC:s=8F#L	!	!	!	!	!	!	!	!	!	!	!	!	!	!	!	!	!	!	!	!	!	!
8F#\|	.	.	.	.	.	.	8F#\	ex-	.	.	.	.	.	.	.	.	.	.	.	.	.	.	.	.	.	.	.	.	.
8G#X\J|	.	.	.	.	.	.	8G#X\J	.	.	.	.	.	.	.	.	.	.	.	.	.	.	.	.	.	.	.	.	.	.
=44	=44	=44	=44	=44	=44	=44	=44	=44	=44	=44	=44	=44	=44	=44	=44	=44	=44	=44	=44	=44	=44	=44	=44	=44	=44	=44	=44	=44	=44
4A\|	.	.	.	.	.	.	4A\	-cel-	.	2.ryy	.	.	.	.	.	.	2.ryy	2.r	.	2.r	.	2.r	.	2.r	.	2.r	.	.	.
8A\L|	.	.	.	.	.	.	8A\L	.	.	.	.	.	.	.	.	.	.	.	.	.	.	.	.	.	.	.	.	.	.
8B\|	.	.	.	.	.	.	8B\	.	.	.	.	.	.	.	.	.	.	.	.	.	.	.	.	.	.	.	.	.	.
8F#\|	.	.	.	.	.	.	8F#\	.	.	.	.	.	.	.	.	.	.	.	.	.	.	.	.	.	.	.	.	.	.
!LO:SIC:v:s=8G#\J|	!	!	!	!	!	!	!	!	!	!	!	!	!	!	!	!	!	!	!	!	!	!	!	!	!	!	!	!	!
8G\J|	.	.	.	.	.	.	8G#X\J	.	.	.	.	.	.	.	.	.	.	.	.	.	.	.	.	.	.	.	.	.	.
!	!	!	!	!	!	!	!LO:LB:g=original	!	!	!	!	!	!	!	!	!	!	!	!	!	!	!	!	!	!	!	!	!	!
=45	=45	=45	=45	=45	=45	=45	=45	=45	=45	=45	=45	=45	=45	=45	=45	=45	=45	=45	=45	=45	=45	=45	=45	=45	=45	=45	=45	=45	=45
4A\|	.	.	.	.	.	.	4A\	-ſiſ	.	2.ryy	.	.	.	.	.	.	2.ryy	2.r	.	2.r	.	2.r	.	2.r	.	2.r	.	.	.
8A\L|	.	.	.	.	.	.	8A\L	in	.	.	.	.	.	.	.	.	.	.	.	.	.	.	.	.	.	.	.	.	.
8B\|	.	.	.	.	.	.	8B\J	.	.	.	.	.	.	.	.	.	.	.	.	.	.	.	.	.	.	.	.	.	.
8Gn\|	.	.	.	.	.	.	8Gn\L	ex-	.	.	.	.	.	.	.	.	.	.	.	.	.	.	.	.	.	.	.	.	.
8A\J|	.	.	.	.	.	.	8A\J	.	.	.	.	.	.	.	.	.	.	.	.	.	.	.	.	.	.	.	.	.	.
=46	=46	=46	=46	=46	=46	=46	=46	=46	=46	=46	=46	=46	=46	=46	=46	=46	=46	=46	=46	=46	=46	=46	=46	=46	=46	=46	=46	=46	=46
4F#\|	.	.	0.r	.	2.r	.	4F#\	-cel-	.	2.ryy	0.r	.	.	0.r	.	.	2.ryy	2.r	.	2.r	.	2.r	.	2.r	.	2.r	.	0.r	.
8F#\L|	.	.	.	.	.	.	8F#\L	.	.	.	.	.	.	.	.	.	.	.	.	.	.	.	.	.	.	.	.	.	.
8G\|	.	.	.	.	.	.	8G\	.	.	.	.	.	.	.	.	.	.	.	.	.	.	.	.	.	.	.	.	.	.
8E\|	.	.	.	.	.	.	8E\	.	.	.	.	.	.	.	.	.	.	.	.	.	.	.	.	.	.	.	.	.	.
8F#\J|	.	.	.	.	.	.	8F#\J	.	.	.	.	.	.	.	.	.	.	.	.	.	.	.	.	.	.	.	.	.	.
=47	=47	=47	=47	=47	=47	=47	=47	=47	=47	=47	=47	=47	=47	=47	=47	=47	=47	=47	=47	=47	=47	=47	=47	=47	=47	=47	=47	=47	=47
*^	*	*	*	*	*	*	*	*	*	*	*	*	*	*	*	*	*	*	*	*	*	*	*	*	*	*	*	*	*
4r	8D\L	.	.	.	.	4r	.	8D\L	-ſiſ	.	2.ryy	.	.	.	.	.	.	2.ryy	2.r	.	2.r	.	2.r	.	2.r	.	2.r	.	.	.
.	8C#\	.	.	.	.	.	.	8C#\J	.	.	.	.	.	.	.	.	.	.	.	.	.	.	.	.	.	.	.	.	.	.
!	!	!	!	!	!	!	!	!	!LO:MO:mod=o-	!	!	!	!	!	!	!	!	!	!	!	!	!	!	!	!	!	!	!	!	!
4r	8D\	.	.	.	.	4r	.	8D\L	O-	.	.	.	.	.	.	.	.	.	.	.	.	.	.	.	.	.	.	.	.	.
.	8E\	.	.	.	.	.	.	8E\	.	.	.	.	.	.	.	.	.	.	.	.	.	.	.	.	.	.	.	.	.	.
4d/	8F#\	.	.	.	.	4d/	.	8F#\	.	.	.	.	.	.	.	.	.	.	.	.	.	.	.	.	.	.	.	.	.	.
.	8D\J	.	.	.	.	.	.	8D\J	.	.	.	.	.	.	.	.	.	.	.	.	.	.	.	.	.	.	.	.	.	.
=48	=48	=48	=48	=48	=48	=48	=48	=48	=48	=48	=48	=48	=48	=48	=48	=48	=48	=48	=48	=48	=48	=48	=48	=48	=48	=48	=48	=48	=48	=48
4c#/	4A\	.	.	.	.	4c#/	.	2AA/	-ſan-	.	2.ryy	.	.	.	.	.	.	2.ryy	2.r	.	2.r	.	2.r	.	2.r	.	2.r	.	.	.
8c#/L	4r	.	.	.	.	8c#/L	.	.	.	.	.	.	.	.	.	.	.	.	.	.	.	.	.	.	.	.	.	.	.	.
8A/	.	.	.	.	.	8A/	.	.	.	.	.	.	.	.	.	.	.	.	.	.	.	.	.	.	.	.	.	.	.	.
8d#X/	4A\	.	.	.	.	8d#X/	.	4A\	-na	.	.	.	.	.	.	.	.	.	.	.	.	.	.	.	.	.	.	.	.	.
8B/J	.	.	.	.	.	8B/J	.	.	.	.	.	.	.	.	.	.	.	.	.	.	.	.	.	.	.	.	.	.	.	.
=49	=49	=49	=49	=49	=49	=49	=49	=49	=49	=49	=49	=49	=49	=49	=49	=49	=49	=49	=49	=49	=49	=49	=49	=49	=49	=49	=49	=49	=49	=49
4e/	4G#X\	.	.	.	.	4e/	.	(4G#X\	in	.	2.ryy	.	.	.	.	.	.	2.ryy	2.r	.	2.r	.	2.r	.	2.r	.	2.r	.	.	.
8e/L	4E\	.	.	.	.	8e/L	.	4E\)	.	.	.	.	.	.	.	.	.	.	.	.	.	.	.	.	.	.	.	.	.	.
8f#/	.	.	.	.	.	8f#/	.	.	.	.	.	.	.	.	.	.	.	.	.	.	.	.	.	.	.	.	.	.	.	.
8c#/	4A\	.	.	.	.	8c#/	.	4A\	ex-	.	.	.	.	.	.	.	.	.	.	.	.	.	.	.	.	.	.	.	.	.
8d#X/J	.	.	.	.	.	8d#X/J	.	.	.	.	.	.	.	.	.	.	.	.	.	.	.	.	.	.	.	.	.	.	.	.
=50	=50	=50	=50	=50	=50	=50	=50	=50	=50	=50	=50	=50	=50	=50	=50	=50	=50	=50	=50	=50	=50	=50	=50	=50	=50	=50	=50	=50	=50	=50
!	!	!	!	!	!	!	!	!LO:SIC:v:s=(4G#\	!	!	!	!	!	!	!	!	!	!	!	!	!	!	!	!	!	!	!	!	!	!
4e/	4G#X\	.	.	1.r	.	4e/	.	(4G\	-cel-	.	2.ryy	1.r	.	.	0.r	.	.	2.ryy	2.r	.	2.r	.	2.r	.	2.r	.	2.r	.	0.r	.
8e/L	4E\	.	.	.	.	8e/L	.	4E\	.	.	.	.	.	.	.	.	.	.	.	.	.	.	.	.	.	.	.	.	.	.
8f#/	.	.	.	.	.	8f#/	.	.	.	.	.	.	.	.	.	.	.	.	.	.	.	.	.	.	.	.	.	.	.	.
8c#/	4A\	.	.	.	.	8c#/	.	4A\)	.	.	.	.	.	.	.	.	.	.	.	.	.	.	.	.	.	.	.	.	.	.
8d#X/J	.	.	.	.	.	8d#X/J	.	.	.	.	.	.	.	.	.	.	.	.	.	.	.	.	.	.	.	.	.	.	.	.
!LO:LB:g=original	!LO:LB:g=original	!	!	!	!	!	!	!	!	!	!	!	!	!	!	!	!	!	!	!	!	!	!	!	!	!	!	!	!	!
=51	=51	=51	=51	=51	=51	=51	=51	=51	=51	=51	=51	=51	=51	=51	=51	=51	=51	=51	=51	=51	=51	=51	=51	=51	=51	=51	=51	=51	=51	=51
!	!	!	!	!	!	!	!	!LO:SIC:v:s=4G#\	!	!	!	!	!	!	!	!	!	!	!	!	!	!	!	!	!	!	!	!	!	!
4e/	4G#X\	.	.	.	.	4e/	.	4G\	-ſiſ	.	2.ryy	.	.	.	.	.	.	2.ryy	2.r	.	2.r	.	2.r	.	2.r	.	2.r	.	.	.
8e/L	4E\	.	.	.	.	8e/L	.	4E\	in	.	.	.	.	.	.	.	.	.	.	.	.	.	.	.	.	.	.	.	.	.
8f#/	.	.	.	.	.	8f#/	.	.	.	.	.	.	.	.	.	.	.	.	.	.	.	.	.	.	.	.	.	.	.	.
!	!	!	!	!	!	!	!	!LO:SIC:v:s=4G#\	!	!	!	!	!	!	!	!	!	!	!	!	!	!	!	!	!	!	!	!	!	!
8dn/	4G#\	.	.	.	.	8dn/	.	4G\	ex-	.	.	.	.	.	.	.	.	.	.	.	.	.	.	.	.	.	.	.	.	.
8e/J	.	.	.	.	.	8e/J	.	.	.	.	.	.	.	.	.	.	.	.	.	.	.	.	.	.	.	.	.	.	.	.
=52	=52	=52	=52	=52	=52	=52	=52	=52	=52	=52	=52	=52	=52	=52	=52	=52	=52	=52	=52	=52	=52	=52	=52	=52	=52	=52	=52	=52	=52	=52
4c#/	4A\	.	.	2.r	.	4c#/	.	(2A\	-cel-	.	2.ryy	2.r	.	.	.	.	.	2.ryy	2.r	.	2.r	.	2.r	.	2.r	.	2.r	.	.	.
8c#/L	4A\	.	.	.	.	8c#/L	.	.	.	.	.	.	.	.	.	.	.	.	.	.	.	.	.	.	.	.	.	.	.	.
8d/	.	.	.	.	.	8d/	.	.	.	.	.	.	.	.	.	.	.	.	.	.	.	.	.	.	.	.	.	.	.	.
8B/	4E\	.	.	.	.	8B/	.	4E\)	.	.	.	.	.	.	.	.	.	.	.	.	.	.	.	.	.	.	.	.	.	.
8c#/J	.	.	.	.	.	8c#/J	.	.	.	.	.	.	.	.	.	.	.	.	.	.	.	.	.	.	.	.	.	.	.	.
!	!	!	!	!	!	!LO:LB:g=original	!	!	!	!	!	!	!	!	!	!	!	!	!	!	!	!	!	!	!	!	!	!	!	!
=53	=53	=53	=53	=53	=53	=53	=53	=53	=53	=53	=53	=53	=53	=53	=53	=53	=53	=53	=53	=53	=53	=53	=53	=53	=53	=53	=53	=53	=53	=53
8A/L	4C#\	.	.	4r	.	4A/	.	4AA/	-ſiſ	.	2.ryy	4r	.	.	.	.	.	2.ryy	2.r	.	2.r	.	2.r	.	2.r	.	2.r	.	.	.
8G#X/	.	.	.	.	.	.	.	.	.	.	.	.	.	.	.	.	.	.	.	.	.	.	.	.	.	.	.	.	.	.
8A/	4AA/	.	.	4r	.	8A/L	.	4AA/	in	.	.	4r	.	.	.	.	.	.	.	.	.	.	.	.	.	.	.	.	.	.
8B/	.	.	.	.	.	8B/	.	.	.	.	.	.	.	.	.	.	.	.	.	.	.	.	.	.	.	.	.	.	.	.
8c#/	4AA/	.	.	4a/	.	8c#/	.	4A\	ex-	.	.	4a\	O-	.	.	.	.	.	.	.	.	.	.	.	.	.	.	.	.	.
8A/J	.	.	.	.	.	8A/J	.	.	.	.	.	.	.	.	.	.	.	.	.	.	.	.	.	.	.	.	.	.	.	.
=54	=54	=54	=54	=54	=54	=54	=54	=54	=54	=54	=54	=54	=54	=54	=54	=54	=54	=54	=54	=54	=54	=54	=54	=54	=54	=54	=54	=54	=54	=54
4d/	4D\	.	.	4f#/	.	4d/	.	4D\	-cel-	.	2.ryy	4f#\	-ſan-	.	0.r	.	.	2.ryy	2.r	.	2.r	.	2.r	.	2.r	.	2.r	.	0.r	.
4ryyyy	4D\	#	.	8f#/L	.	4r	.	4D\	-ſiſ	.	.	8f#\L	.	.	.	.	.	.	.	.	.	.	.	.	.	.	.	.	.	.
.	.	.	.	8d/	.	.	.	.	.	.	.	8d\	.	.	.	.	.	.	.	.	.	.	.	.	.	.	.	.	.	.
!	!	!	!	!	!	!	!	!	!LO:MO:mod=o-	!	!	!	!LO:MO:mod=.	!	!	!	!	!	!	!	!	!	!	!	!	!	!	!	!	!
4ryyyy	4d\	4	.	8g#X/	.	4r	.	4D\	O-	.	.	8g#X\	-na	.	.	.	.	.	.	.	.	.	.	.	.	.	.	.	.	.
.	.	.	.	8e/J	.	.	.	.	.	.	.	8e\J	.	.	.	.	.	.	.	.	.	.	.	.	.	.	.	.	.	.
*v	*v	*	*	*	*	*	*	*	*	*	*	*	*	*	*	*	*	*	*	*	*	*	*	*	*	*	*	*	*	*
=55	=55	=55	=55	=55	=55	=55	=55	=55	=55	=55	=55	=55	=55	=55	=55	=55	=55	=55	=55	=55	=55	=55	=55	=55	=55	=55	=55	=55	=55
!	!	!	!	!	!	!	!	!	!	!	!	!LO:MO:mod=-na	!	!	!	!	!	!	!	!	!	!	!	!	!	!	!	!	!
4c#\	6	.	4a/	.	0.r	.	(4C#/	-ſan-	.	2.ryy	4a\	in	.	.	.	.	2.ryy	2.r	.	2.r	.	2.r	.	2.r	.	2.r	.	.	.
!	!	!	!	!	!	!	!	!	!	!	!	!LO:MO:null:mod=in	!	!	!	!	!	!	!	!	!	!	!	!	!	!	!	!	!
4A\	.	.	8a/L	.	.	.	4AA/)	.	.	.	8a\L	.	.	.	.	.	.	.	.	.	.	.	.	.	.	.	.	.	.
.	.	.	8b/	.	.	.	.	.	.	.	8b\J	.	.	.	.	.	.	.	.	.	.	.	.	.	.	.	.	.	.
4d\	.	.	8f#/	.	.	.	4D/	-na	.	.	8f#\L	ex-	.	.	.	.	.	.	.	.	.	.	.	.	.	.	.	.	.
.	.	.	8g#X/J	.	.	.	.	.	.	.	8g#X\J	.	.	.	.	.	.	.	.	.	.	.	.	.	.	.	.	.	.
=56	=56	=56	=56	=56	=56	=56	=56	=56	=56	=56	=56	=56	=56	=56	=56	=56	=56	=56	=56	=56	=56	=56	=56	=56	=56	=56	=56	=56	=56
4c#\	.	.	4a/	.	.	.	(4C#/	in	.	2.ryy	4a\	-cel-	.	.	.	.	2.ryy	2.r	.	2.r	.	2.r	.	2.r	.	2.r	.	.	.
4A\	.	.	8a/L	.	.	.	4AA/)	.	.	.	8a\L	.	.	.	.	.	.	.	.	.	.	.	.	.	.	.	.	.	.
.	.	.	8b/	.	.	.	.	.	.	.	8b\	.	.	.	.	.	.	.	.	.	.	.	.	.	.	.	.	.	.
4d\	.	.	8f#/	.	.	.	4D/	ex-	.	.	8f#\	.	.	.	.	.	.	.	.	.	.	.	.	.	.	.	.	.	.
.	.	.	8g#X/J	.	.	.	.	.	.	.	8g#X\J	.	.	.	.	.	.	.	.	.	.	.	.	.	.	.	.	.	.
!	!	!	!	!	!	!	!LO:LB:g=original	!	!	!	!	!	!	!	!	!	!	!	!	!	!	!	!	!	!	!	!	!	!
=57	=57	=57	=57	=57	=57	=57	=57	=57	=57	=57	=57	=57	=57	=57	=57	=57	=57	=57	=57	=57	=57	=57	=57	=57	=57	=57	=57	=57	=57
4c#\	.	.	4a/	.	.	.	4C#/	-cel-	.	2.ryy	4a\	-ſis	.	.	.	.	2.ryy	2.r	.	2.r	.	2.r	.	2.r	.	2.r	.	.	.
4A\	.	.	8a/L	.	.	.	4AA/	.	.	.	8a\L	in	.	.	.	.	.	.	.	.	.	.	.	.	.	.	.	.	.
!	!	!	!	!	!	!	!	!	!	!	!LO:SIC:s=8bJ	!	!	!	!	!	!	!	!	!	!	!	!	!	!	!	!	!	!
.	.	.	8b/	.	.	.	.	.	.	.	8b\	.	.	.	.	.	.	.	.	.	.	.	.	.	.	.	.	.	.
!	!	!	!	!	!	!	!	!	!	!	!LO:SIC:s=8gnL	!	!	!	!	!	!	!	!	!	!	!	!	!	!	!	!	!	!
4c#\	.	.	8gn/	.	.	.	4C#/	-ſiſ	.	.	8gn\	ex-	.	.	.	.	.	.	.	.	.	.	.	.	.	.	.	.	.
*	*	*	*	*	*	*	*	*	*	*	*custos:f	*	*	*	*	*	*	*	*	*	*	*	*	*	*	*	*	*	*
.	.	.	8a/J	.	.	.	.	.	.	.	8a\J	.	.	.	.	.	.	.	.	.	.	.	.	.	.	.	.	.	.
!	!	!	!	!	!	!	!	!	!	!	!LO:LB:g=original	!	!	!	!	!	!	!	!	!	!	!	!	!	!	!	!	!	!
=58	=58	=58	=58	=58	=58	=58	=58	=58	=58	=58	=58	=58	=58	=58	=58	=58	=58	=58	=58	=58	=58	=58	=58	=58	=58	=58	=58	=58	=58
4d\	.	.	4f#/	.	.	.	2D\	in	.	2.ryy	4f#\	-cel-	.	2.r	.	.	2.ryy	2.r	.	2.r	.	2.r	.	2.r	.	2.r	.	0.r	.
4D\	.	.	8f#/L	.	.	.	.	.	.	.	8f#\L	.	.	.	.	.	.	.	.	.	.	.	.	.	.	.	.	.	.
.	.	.	8g/	.	.	.	.	.	.	.	8g\	.	.	.	.	.	.	.	.	.	.	.	.	.	.	.	.	.	.
4A\	.	.	8e/	.	.	.	4A\	ex-	.	.	8e\	.	.	.	.	.	.	.	.	.	.	.	.	.	.	.	.	.	.
.	.	.	8f#/J	.	.	.	.	.	.	.	8f#\J	.	.	.	.	.	.	.	.	.	.	.	.	.	.	.	.	.	.
!	!	!	!LO:LB:g=original	!	!	!	!	!	!	!	!	!	!	!	!	!	!	!	!	!	!	!	!	!	!	!	!	!	!
=59	=59	=59	=59	=59	=59	=59	=59	=59	=59	=59	=59	=59	=59	=59	=59	=59	=59	=59	=59	=59	=59	=59	=59	=59	=59	=59	=59	=59	=59
*^	*	*	*	*	*	*	*	*	*	*	*	*	*	*	*	*	*	*	*	*	*	*	*	*	*	*	*	*	*
4F#\	2ryyyy	.	.	8d/L	.	4r	.	4F#\	-cel-	.	2.ryy	8d\L	-ſiſ	.	4r	.	.	2.ryy	2.r	.	2.r	.	2.r	.	2.r	.	2.r	.	.	.
.	.	.	.	8c#/	.	.	.	.	.	.	.	8c#\J	.	.	.	.	.	.	.	.	.	.	.	.	.	.	.	.	.	.
!	!	!	!	!	!	!	!	!	!	!	!	!	!LO:MO:mod=o-	!	!	!	!	!	!	!	!	!	!	!	!	!	!	!	!	!
4D\	.	.	.	8d/	.	4r	.	4D\	-ſiſ	.	.	8d\L	O-	.	4r	.	.	.	.	.	.	.	.	.	.	.	.	.	.	.
.	.	.	.	8e/	.	.	.	.	.	.	.	8e\	.	.	.	.	.	.	.	.	.	.	.	.	.	.	.	.	.	.
!LO:MO:mod=*clefG2	!	!	!	!	!	!	!	!	!	!	!	!	!	!	!	!	!	!	!	!	!	!	!	!	!	!	!	!	!	!
*clefC1	*	*	*	*	*	*	*	*	*	*	*	*	*	*	*	*	*	*	*	*	*	*	*	*	*	*	*	*	*	*
4dd/	8f#\L	.	.	8f#/	.	4dd\	.	4r	.	.	.	8f#\	.	.	4dd\	O-	.	.	.	.	.	.	.	.	.	.	.	.	.	.
.	8d\J	.	.	8d/J	.	.	.	.	.	.	.	8d\J	.	.	.	.	.	.	.	.	.	.	.	.	.	.	.	.	.	.
=60	=60	=60	=60	=60	=60	=60	=60	=60	=60	=60	=60	=60	=60	=60	=60	=60	=60	=60	=60	=60	=60	=60	=60	=60	=60	=60	=60	=60	=60	=60
!	!	!	!	!	!	!	!	!LO:TX:a:t=5:mod=	!	!	!	!	!	!	!	!	!	!	!	!	!	!	!	!	!	!	!	!	!	!
4cc#/	4a\	.	.	4A/	.	4cc#\	.	0.r	.	.	2.ryy	2a\	-ſan-	.	4cc#\	-ſan-	.	2.ryy	2.r	.	2.r	.	2.r	.	2.r	.	2.r	.	.	.
8cc#/L	4A/	.	.	4a/	.	8cc#\L	.	.	.	.	.	.	.	.	8cc#\L	.	.	.	.	.	.	.	.	.	.	.	.	.	.	.
8a/	.	.	.	.	.	8a\	.	.	.	.	.	.	.	.	8a\	.	.	.	.	.	.	.	.	.	.	.	.	.	.	.
8dd#X/	4a\	.	.	4a/	.	8dd#X\	.	.	.	.	.	4a\	-na	.	8dd#X\	.	.	.	.	.	.	.	.	.	.	.	.	.	.	.
8b/J	.	.	.	.	.	8b\J	.	.	.	.	.	.	.	.	8b\J	.	.	.	.	.	.	.	.	.	.	.	.	.	.	.
!	!	!	!	!	!	!	!	!	!	!	!	!	!	!	!LO:LB:g=original	!	!	!	!	!	!	!	!	!	!	!	!	!	!	!
=61	=61	=61	=61	=61	=61	=61	=61	=61	=61	=61	=61	=61	=61	=61	=61	=61	=61	=61	=61	=61	=61	=61	=61	=61	=61	=61	=61	=61	=61	=61
4ee/	4g#X\	.	.	4g#X/	.	4ee\	.	.	.	.	2.ryy	(4g#X\	in	.	4ee\	-na	.	2.ryy	2.r	.	2.r	.	2.r	.	2.r	.	2.r	.	.	.
8ee/L	4e\	.	.	4e/	.	8ee\L	.	.	.	.	.	4e\)	.	.	8ee\L	in	.	.	.	.	.	.	.	.	.	.	.	.	.	.
!	!	!	!	!	!	!	!	!	!	!	!	!	!	!	!LO:SIC:s=8ff#J	!	!	!	!	!	!	!	!	!	!	!	!	!	!	!
8ff#/	.	.	.	.	.	8ff#\	.	.	.	.	.	.	.	.	8ff#\	.	.	.	.	.	.	.	.	.	.	.	.	.	.	.
!	!	!	!	!	!	!	!	!	!	!	!	!	!	!	!LO:SIC:s=8cc#L	!	!	!	!	!	!	!	!	!	!	!	!	!	!	!
8cc#/	4a\	.	.	4a/	.	8cc#\	.	.	.	.	.	4a\	ex-	.	8cc#\	ex-	.	.	.	.	.	.	.	.	.	.	.	.	.	.
8dd#X/J	.	.	.	.	.	8dd#X\J	.	.	.	.	.	.	.	.	8dd#X\J	.	.	.	.	.	.	.	.	.	.	.	.	.	.	.
=62	=62	=62	=62	=62	=62	=62	=62	=62	=62	=62	=62	=62	=62	=62	=62	=62	=62	=62	=62	=62	=62	=62	=62	=62	=62	=62	=62	=62	=62	=62
*custos:ee	*	*	*	*	*	*	*	*	*	*	*	*	*	*	*	*	*	*	*	*	*	*	*	*	*	*	*	*	*	*
!	!	!	!	!LO:SIC:v:s=4g#/	!	!	!	!	!	!	!	!	!	!	!	!	!	!	!	!	!	!	!	!	!	!	!	!	!	!
4ee/	4g#X\	.	.	4g/	.	4ee\	.	.	.	.	2.ryy	(4g#X\	-cel-	.	4ee\	-cel-	.	2.ryy	2.r	.	2.r	.	2.r	.	2.r	.	2.r	.	0.r	.
!LO:LB:g=original	!LO:LB:g=original	!	!	!	!	!	!	!	!	!	!	!	!	!	!	!	!	!	!	!	!	!	!	!	!	!	!	!	!	!
8ee/L	4e\	.	.	4e/	.	8ee\L	.	.	.	.	.	4e\)	.	.	8ee\L	.	.	.	.	.	.	.	.	.	.	.	.	.	.	.
8ff#/	.	.	.	.	.	8ff#\	.	.	.	.	.	.	.	.	8ff#\	.	.	.	.	.	.	.	.	.	.	.	.	.	.	.
8cc#/	4a\	.	.	4a/	.	8cc#\	.	.	.	.	.	4a\	-ſiſ	.	8cc#\	.	.	.	.	.	.	.	.	.	.	.	.	.	.	.
8dd#X/J	.	.	.	.	.	8dd#X\J	.	.	.	.	.	.	.	.	8dd#X\J	.	.	.	.	.	.	.	.	.	.	.	.	.	.	.
=63	=63	=63	=63	=63	=63	=63	=63	=63	=63	=63	=63	=63	=63	=63	=63	=63	=63	=63	=63	=63	=63	=63	=63	=63	=63	=63	=63	=63	=63	=63
4ee/	4g#X\	.	.	4g#X/	.	4ee\	.	.	.	.	2.ryy	(4g#X\	in	.	4ee\	-ſiſ	.	2.ryy	2.r	.	2.r	.	2.r	.	2.r	.	2.r	.	.	.
8ee/L	4e\	.	.	4e/	.	8ee\L	.	.	.	.	.	4e\)	.	.	8ee\L	in	.	.	.	.	.	.	.	.	.	.	.	.	.	.
8ff#/	.	.	.	.	.	8ff#\	.	.	.	.	.	.	.	.	8ff#\J	.	.	.	.	.	.	.	.	.	.	.	.	.	.	.
!	!	!	!	!LO:SIC:v:s=4g#/	!	!	!	!	!	!	!	!	!	!	!	!	!	!	!	!	!	!	!	!	!	!	!	!	!	!
8ddn/	4g#\	.	.	4a/	.	8ddn\	.	.	.	.	.	4g#\	ex-	.	8ddn\L	ex-	.	.	.	.	.	.	.	.	.	.	.	.	.	.
8ee/J	.	.	.	.	.	8ee\J	.	.	.	.	.	.	.	.	8ee\J	.	.	.	.	.	.	.	.	.	.	.	.	.	.	.
=64	=64	=64	=64	=64	=64	=64	=64	=64	=64	=64	=64	=64	=64	=64	=64	=64	=64	=64	=64	=64	=64	=64	=64	=64	=64	=64	=64	=64	=64	=64
4cc#/	4a\	.	.	4a/	.	4cc#\	.	2.r	.	.	2.ryy	(2a\	-cel-	.	4cc#\	-cel-	.	2.ryy	2.r	.	2.r	.	2.r	.	2.r	.	2.r	.	.	.
8cc#/L	4A/	.	.	4A/	.	8cc#\L	.	.	.	.	.	.	.	.	8cc#\L	.	.	.	.	.	.	.	.	.	.	.	.	.	.	.
8dd/	.	.	.	.	.	8dd\	.	.	.	.	.	.	.	.	8dd\	.	.	.	.	.	.	.	.	.	.	.	.	.	.	.
8b/	4e\	.	.	4e/	.	8b\	.	.	.	.	.	4e\)	.	.	8b\	.	.	.	.	.	.	.	.	.	.	.	.	.	.	.
8cc#/J	.	.	.	.	.	8cc#\J	.	.	.	.	.	.	.	.	8cc#\J	.	.	.	.	.	.	.	.	.	.	.	.	.	.	.
=65	=65	=65	=65	=65	=65	=65	=65	=65	=65	=65	=65	=65	=65	=65	=65	=65	=65	=65	=65	=65	=65	=65	=65	=65	=65	=65	=65	=65	=65	=65
8a/L	4c#\	.	.	4c#/	.	8a/L	.	4r	.	.	2.ryy	2c#\	-ſis	.	4a\	-ſiſ	.	2.ryy	4r	.	4r	.	2.r	.	2.r	.	2.r	.	.	.
!LO:SIC:v:s=8g#/	!	!	!	!	!	!	!	!	!	!	!	!	!	!	!	!	!	!	!	!	!	!	!	!	!	!	!	!	!	!
8g/	.	.	.	.	.	8g#X/	.	.	.	.	.	.	.	.	.	.	.	.	.	.	.	.	.	.	.	.	.	.	.	.
!	!	!	!	!	!	!	!	!	!	!	!	!	!	!	!	!LO:MO:mod=o-	!	!	!	!	!	!	!	!	!	!	!	!	!	!
8a/	4A/	.	.	4A/	.	8a/	.	4r	.	.	.	.	.	.	8a\L	O-	.	.	4r	.	4r	.	.	.	.	.	.	.	.	.
8b/J	.	.	.	.	.	8b/	.	.	.	.	.	.	.	.	8b\	.	.	.	.	.	.	.	.	.	.	.	.	.	.	.
*clefF4	*	*	*	*	*	*	*	*	*	*	*	*	*	*	*	*	*	*	*	*	*	*	*	*	*	*	*	*	*	*
!	!	!	!	!	!	!	!	!	!LO:MO:mod=o-	!	!	!	!LO:MO:mod=o-	!	!	!	!	!	!	!	!	!	!	!	!	!	!	!	!	!
4A\	4ryyyy	5 3	.	4a/	.	8cc#/	.	4A\	O-	.	.	4a\	O-	.	8cc#\	.	.	.	4A/	.	4A/	.	.	.	.	.	.	.	.	.
*	*	*	*	*	*	*custos:dd	*	*	*	*	*	*	*	*	*	*	*	*	*	*	*	*	*	*	*	*	*	*	*	*
.	.	.	.	.	.	8a/J	.	.	.	.	.	.	.	.	8a\J	.	.	.	.	.	.	.	.	.	.	.	.	.	.	.
*v	*v	*	*	*	*	*	*	*	*	*	*	*	*	*	*	*	*	*	*	*	*	*	*	*	*	*	*	*	*	*
!	!	!	!	!	!LO:LB:g=original	!	!	!	!	!	!LO:LB:g=original	!	!	!	!	!	!	!	!	!	!	!	!	!	!	!	!	!	!
=66	=66	=66	=66	=66	=66	=66	=66	=66	=66	=66	=66	=66	=66	=66	=66	=66	=66	=66	=66	=66	=66	=66	=66	=66	=66	=66	=66	=66	=66
2.D 2.DD/	.	.	4f#/	.	4dd\	.	2D\	-ſan-	.	2.ryy	2d\	-ſan-	.	2dd\	-ſan-	.	2.ryy	2.F#/	.	2.d\	.	2f#/	.	2dd\	.	4dd\	.	4ddd\	.
.	.	.	8d/L	.	8dd\L	.	.	.	.	.	.	.	.	.	.	.	.	.	.	.	.	.	.	.	.	8dd\L	.	8dd\L	.
.	.	.	8c#/	.	8cc#\	.	.	.	.	.	.	.	.	.	.	.	.	.	.	.	.	.	.	.	.	8cc#\	.	8cc#\	.
.	.	.	8d/	.	8dd\	.	4D\	-na	.	.	4e\	-na	.	4dd\	-na	.	.	.	.	.	.	4a/	.	4ee\	.	8dd\	.	8dd\	.
.	.	.	8e/J	.	8ee\J	.	.	.	.	.	.	.	.	.	.	.	.	.	.	.	.	.	.	.	.	8ee\J	.	8ee\J	.
=67	=67	=67	=67	=67	=67	=67	=67	=67	=67	=67	=67	=67	=67	=67	=67	=67	=67	=67	=67	=67	=67	=67	=67	=67	=67	=67	=67	=67	=67
*^	*	*	*	*	*	*	*	*	*	*	*	*	*	*	*	*	*	*	*	*	*	*	*	*	*	*	*	*	*
!	!LO:MO:mod=*null:null	!	!	!	!	!	!	!	!	!	!	!	!	!	!	!	!	!	!	!	!	!	!	!	!	!	!	!	!	!
*	*8ba	*	*	*	*	*	*	*	*	*	*	*	*	*	*	*	*	*	*	*	*	*	*	*	*	*	*	*	*	*
!LO:TX:a:t=P:problem=złe wyświetlanie	!	!	!	!	!	!	!	!	!	!	!	!	!	!	!	!	!	!	!	!	!	!	!	!	!	!	!	!	!	!
!LO:TX:a:t=Violon:mod=Vc.	!LO:SIC:s=[2.DD	!	!	!	!	!	!	!	!	!	!	!	!	!	!	!	!	!	!	!	!	!	!	!	!	!	!	!	!	!
4F#/	2.DD\	.	.	4f#/	.	4ff#\	.	2D\	in	.	2.ryy	2f#\	in	.	2dd\	in	.	2.ryy	2.d\	.	2.f#\	.	2dd\	.	2ff#\	.	4ff#\	.	4ff#\	.
4F#/	.	.	.	8f#/L	.	8ff#\L	.	.	.	.	.	.	.	.	.	.	.	.	.	.	.	.	.	.	.	.	8ff#\L	.	8ff#\L	.
.	.	.	.	8e/	.	8ee\	.	.	.	.	.	.	.	.	.	.	.	.	.	.	.	.	.	.	.	.	8ee\	.	8ee\	.
4G#X/	.	.	.	8f#/	.	8ff#\	.	4D\	ex-	.	.	4e\	ex-	.	4dd\	ex-	.	.	.	.	.	.	4ee\	.	4gg\	.	8ff#\	.	8ff#\	.
!	!	!	!	!LO:SIC:v:s=8g#/J	!	!	!	!	!	!	!	!	!	!	!	!	!	!	!	!	!	!	!	!	!	!	!LO:SIC:v:s=8gg#J	!	!LO:SIC:v:s=8gg#J	!
.	.	.	.	8g/J	.	8gg#X\J	.	.	.	.	.	.	.	.	.	.	.	.	.	.	.	.	.	.	.	.	8gg\J	.	8gg\J	.
=68	=68	=68	=68	=68	=68	=68	=68	=68	=68	=68	=68	=68	=68	=68	=68	=68	=68	=68	=68	=68	=68	=68	=68	=68	=68	=68	=68	=68	=68	=68
!	!LO:SIC:s=2.DD_	!	!	!	!	!	!	!	!	!	!	!	!	!	!	!	!	!	!	!	!	!	!	!	!	!	!	!	!	!
4A/	2.DD 2.DDD\	.	.	4a 4f#/	.	4aa\	.	2.D\	-cel-	.	2.ryy	2.f#\	-cel-	.	2.dd\	-cel-	.	2.ryy	2.f#\	.	2.a\	.	2.ff#\	.	2.aa\	.	4aa\	.	4aa\	.
8A/L	.	.	.	4a 4f#/	.	8aa\L	.	.	.	.	.	.	.	.	.	.	.	.	.	.	.	.	.	.	.	.	2gg\	.	2aa\	.
8B/	.	.	.	.	.	8bb\	.	.	.	.	.	.	.	.	.	.	.	.	.	.	.	.	.	.	.	.	.	.	.	.
8F#/	.	.	.	4a 4e/	.	8ff#\	.	.	.	.	.	.	.	.	.	.	.	.	.	.	.	.	.	.	.	.	.	.	.	.
!LO:SIC:v:s=8G#/J	!	!	!	!	!	!	!	!	!	!	!	!	!	!	!	!	!	!	!	!	!	!	!	!	!	!	!	!	!	!
8G/J	.	.	.	.	.	8gg#X\J	.	.	.	.	.	.	.	.	.	.	.	.	.	.	.	.	.	.	.	.	.	.	.	.
!	!	!	!	!	!	!	!	!	!	!	!	!	!	!	!	!	!	!	!	!	!	!	!	!	!	!	!	!	!LO:LB:g=original	!
=69	=69	=69	=69	=69	=69	=69	=69	=69	=69	=69	=69	=69	=69	=69	=69	=69	=69	=69	=69	=69	=69	=69	=69	=69	=69	=69	=69	=69	=69	=69
!	!LO:SIC:s=2.DD]	!	!	!	!	!	!	!	!	!	!	!	!	!	!	!	!	!	!	!	!	!	!	!	!LO:TX:t=P:problem=niekompletny takt	!	!	!	!	!
4A/	2.DD\	.	.	4a 4f#/	.	4aa\	.	2.D\	-ſis	.	2.ryy	2.f#\	-ſiſ	.	2.dd\	-ſiſ	.	2.ryy	2.f#\	.	2.a\	.	2.ff#\	.	2.aa\	.	2.ff#\	.	2.aa\	.
8A/L	.	.	.	4a 4f#/	.	8aa\L	.	.	.	.	.	.	.	.	.	.	.	.	.	.	.	.	.	.	.	.	.	.	.	.
8B/	.	.	.	.	.	8bb\	.	.	.	.	.	.	.	.	.	.	.	.	.	.	.	.	.	.	.	.	.	.	.	.
8F#/	.	.	.	4a 4e/	.	8ff#\	.	.	.	.	.	.	.	.	.	.	.	.	.	.	.	.	.	.	.	.	.	.	.	.
!LO:SIC:v:s=8G#/J	!	!	!	!	!	!LO:SIC:v:s=8gg#\J	!	!	!	!	!	!	!	!	!	!	!	!	!	!	!	!	!	!	!	!	!	!	!	!
8G/J	.	.	.	.	.	8gg\J	.	.	.	.	.	.	.	.	.	.	.	.	.	.	.	.	.	.	.	.	.	.	.	.
=70	=70	=70	=70	=70	=70	=70	=70	=70	=70	=70	=70	=70	=70	=70	=70	=70	=70	=70	=70	=70	=70	=70	=70	=70	=70	=70	=70	=70	=70	=70
!	!LO:SIC:s=[2.DD	!	!	!	!	!	!	!	!LO:MO:mod=o-	!	!	!	!	!	!	!LO:MO:mod=o-	!	!	!	!	!	!	!	!	!	!	!	!	!	!
[2.A/	2.DD\	.	.	4a 4f#/	.	4aa\	.	2.D\	O-	.	2.ryy	2f#\	in	.	2.dd\	O-	.	2.ryy	2f#\	.	2a\	.	2.ff#\	.	2.aa\	.	2.ff#\	.	2.aa\	.
.	.	.	.	4a 4f#/	.	8ff#\L	.	.	.	.	.	.	.	.	.	.	.	.	.	.	.	.	.	.	.	.	.	.	.	.
.	.	.	.	.	.	8dd\	.	.	.	.	.	.	.	.	.	.	.	.	.	.	.	.	.	.	.	.	.	.	.	.
.	.	.	.	4a 4f#/	.	8bb\	.	.	.	.	.	4f#\	ex-	.	.	.	.	.	4d\	.	4f#\	.	.	.	.	.	.	.	.	.
.	.	.	.	.	.	8gg#X\J	.	.	.	.	.	.	.	.	.	.	.	.	.	.	.	.	.	.	.	.	.	.	.	.
!	!	!	!	!	!	!	!	!	!	!	!	!	!	!	!LO:LB:g=original	!	!	!	!	!	!	!	!	!	!	!	!	!	!	!
=71	=71	=71	=71	=71	=71	=71	=71	=71	=71	=71	=71	=71	=71	=71	=71	=71	=71	=71	=71	=71	=71	=71	=71	=71	=71	=71	=71	=71	=71	=71
*	*	*	*	*^	*	*	*	*	*	*	*	*	*	*	*	*	*	*	*	*	*	*	*	*	*	*	*	*	*	*
!LO:SIC:s=2.A_	!LO:SIC:s=2.DD_	!	!	!	!	!	!	!	!	!	!	!	!	!	!	!	!	!	!	!	!	!	!	!LO:TX:t=P:problem=niekompletny takt	!	!	!	!	!	!	!
2.A/]	[>2.DD\	.	.	4a/	2.e\	.	4ee\	.	2D\	-ſan-	.	2.ryy	2.e\	-cel-	.	2dd\	-ſan-	.	2.ryy	2.A/	.	2.e\	.	2.ee\	.	2.aa\	.	2.ee\	.	2.aa\	.
.	.	.	.	4a/	.	.	8cc#\L	.	.	.	.	.	.	.	.	.	.	.	.	.	.	.	.	.	.	.	.	.	.	.	.
.	.	.	.	.	.	.	8a\	.	.	.	.	.	.	.	.	.	.	.	.	.	.	.	.	.	.	.	.	.	.	.	.
.	.	.	.	4a/	.	.	8aa\	.	4D\	-na	.	.	.	.	.	4dd\	-na	.	.	.	.	.	.	.	.	.	.	.	.	.	.
.	.	.	.	.	.	.	8ff#\J	.	.	.	.	.	.	.	.	.	.	.	.	.	.	.	.	.	.	.	.	.	.	.	.
!	!	!	!	!	!	!	!	!	!	!	!	!	!	!	!	!	!	!	!	!	!	!	!	!LO:LB:g=original	!	!	!	!	!	!	!
=72	=72	=72	=72	=72	=72	=72	=72	=72	=72	=72	=72	=72	=72	=72	=72	=72	=72	=72	=72	=72	=72	=72	=72	=72	=72	=72	=72	=72	=72	=72	=72
!LO:SIC:s=2.A_	!	!	!	!	!	!	!	!	!	!	!	!	!	!	!	!	!	!	!	!	!	!	!	!	!	!	!	!	!	!	!
2.A/	2.DD\_>	.	.	2.a/	2.f#\	.	4dd\	.	2.D\	in	.	2.ryy	2.f#\	-ſiſ	.	2.dd\	in	.	2.ryy	2.d\	.	2.f#\	.	2.ff#\	.	2.aa\	.	2.ff#\	.	2.aa\	.
.	.	.	.	.	.	.	8ff#\L	.	.	.	.	.	.	.	.	.	.	.	.	.	.	.	.	.	.	.	.	.	.	.	.
.	.	.	.	.	.	.	8dd\	.	.	.	.	.	.	.	.	.	.	.	.	.	.	.	.	.	.	.	.	.	.	.	.
.	.	.	.	.	.	.	8bb\	.	.	.	.	.	.	.	.	.	.	.	.	.	.	.	.	.	.	.	.	.	.	.	.
.	.	.	.	.	.	.	8gg#X\J	.	.	.	.	.	.	.	.	.	.	.	.	.	.	.	.	.	.	.	.	.	.	.	.
*	*	*	*	*v	*v	*	*	*	*	*	*	*	*	*	*	*	*	*	*	*	*	*	*	*	*	*	*	*	*	*	*
!	!	!	!	!LO:LB:g=original	!	!	!	!	!	!	!	!	!	!	!	!	!	!	!	!	!LO:LB:g=original	!	!	!	!	!	!	!	!	!
=73	=73	=73	=73	=73	=73	=73	=73	=73	=73	=73	=73	=73	=73	=73	=73	=73	=73	=73	=73	=73	=73	=73	=73	=73	=73	=73	=73	=73	=73	=73
!LO:SIC:s=2.A]	!	!	!	!	!	!	!	!	!	!	!	!	!	!	!	!	!	!	!LO:TX:t=P:problem=niekompletny takt	!	!	!	!	!	!	!	!	!	!	!
2.A/	2.DD\]	.	.	4a 4e/	.	4ee\	.	2.D\	ex-	.	2.ryy	2e\	in	.	2.dd\	ex-	.	2.ryy	2.A/	.	2.e\	.	2.ee\	.	2.aa\	.	2.ee\	.	2.aa\	.
.	.	.	.	4a 4e/	.	8cc#\L	.	.	.	.	.	.	.	.	.	.	.	.	.	.	.	.	.	.	.	.	.	.	.	.
.	.	.	.	.	.	8a\	.	.	.	.	.	.	.	.	.	.	.	.	.	.	.	.	.	.	.	.	.	.	.	.
.	.	.	.	4a 4e/	.	8aa\	.	.	.	.	.	4e\	ex-	.	.	.	.	.	.	.	.	.	.	.	.	.	.	.	.	.
.	.	.	.	.	.	8ff#\J	.	.	.	.	.	.	.	.	.	.	.	.	.	.	.	.	.	.	.	.	.	.	.	.
!LO:LB:g=original	!LO:LB:g=original	!	!	!	!	!	!	!LO:LB:g=original	!	!	!	!	!	!	!	!	!	!	!LO:LB:g=original	!	!	!	!	!	!	!	!	!	!	!
=74	=74	=74	=74	=74	=74	=74	=74	=74	=74	=74	=74	=74	=74	=74	=74	=74	=74	=74	=74	=74	=74	=74	=74	=74	=74	=74	=74	=74	=74	=74
!LO:SIC:s=[2.A	!	!	!	!	!	!	!	!	!	!	!	!	!	!	!	!	!	!	!	!	!	!	!	!	!	!	!	!	!	!
2.A/	[2.DD\	.	.	4a 4f#/	.	4dd\	.	2.D\	-cel-	.	2.ryy	4f#\	-cel-	.	2.dd\	-cel-	.	2.ryy	4d\	.	4f#\	.	4ff#\	.	2.aa\	.	2ff#\	.	4ddd\	.
.	.	.	.	4a 4e/	.	8ee\L	.	.	.	.	.	2e\	.	.	.	.	.	.	2A/	.	2e\	.	2ee\	.	.	.	.	.	8eee\L	.
.	.	.	.	.	.	8cc#\	.	.	.	.	.	.	.	.	.	.	.	.	.	.	.	.	.	.	.	.	.	.	8ccc#\	.
.	.	.	.	4a 4e/	.	8a\	.	.	.	.	.	.	.	.	.	.	.	.	.	.	.	.	.	.	.	.	4ee\	.	8aa\	.
.	.	.	.	.	.	8cc#\J	.	.	.	.	.	.	.	.	.	.	.	.	.	.	.	.	.	.	.	.	.	.	8ccc#\J	.
=75	=75	=75	=75	=75	=75	=75	=75	=75	=75	=75	=75	=75	=75	=75	=75	=75	=75	=75	=75	=75	=75	=75	=75	=75	=75	=75	=75	=75	=75	=75
*custos:A	*	*	*	*	*	*	*	*	*	*	*	*	*	*	*	*	*	*	*	*	*	*	*	*	*	*	*	*	*	*
!LO:SIC:s=2.A]	!	!	!	!	!	!	!	!	!	!	!	!	!	!	!	!	!	!	!	!	!	!	!	!	!	!	!	!	!	!
2.A/	2.DD\]	.	.	4a 4f#/	.	8dd\L	.	2.D\	.	.	2.ryy	4f#\	.	.	2.dd\	.	.	2.ryy	4d\	.	4f#\	.	4ff#\	.	2.aa\	.	4ff#\	.	8ddd\L	.
.	.	.	.	.	.	8ff#\	.	.	.	.	.	.	.	.	.	.	.	.	.	.	.	.	.	.	.	.	.	.	8fff#\	.
.	.	.	.	4a 4e/	.	8ee\	.	.	.	.	.	2e\	.	.	.	.	.	.	2A/	.	2e\	.	2ee\	.	.	.	2ee\	.	8eee\	.
.	.	.	.	.	.	8cc#\	.	.	.	.	.	.	.	.	.	.	.	.	.	.	.	.	.	.	.	.	.	.	8ccc#\	.
.	.	.	.	4a 4e/	.	8a\	.	.	.	.	.	.	.	.	.	.	.	.	.	.	.	.	.	.	.	.	.	.	8aa\	.
.	.	.	.	.	.	8cc#\J	.	.	.	.	.	.	.	.	.	.	.	.	.	.	.	.	.	.	.	.	.	.	8ccc#\J	.
!	!LO:MO:mod=*null:null	!	!	!	!	!	!	!	!	!	!	!	!	!	!	!	!	!	!	!	!	!	!	!	!	!	!	!	!	!
*	*X8ba	*	*	*	*	*	*	*	*	*	*	*	*	*	*	*	*	*	*	*	*	*	*	*	*	*	*	*	*	*
=76	=76	=76	=76	=76	=76	=76	=76	=76	=76	=76	=76	=76	=76	=76	=76	=76	=76	=76	=76	=76	=76	=76	=76	=76	=76	=76	=76	=76	=76	=76
!	!	!	!	!	!	!	!	!	!LO:MO:mod=-sis.	!	!	!	!LO:MO:mod=-sis.	!	!	!LO:MO:mod=-sis.	!	!	!	!	!	!	!	!	!	!	!	!	!	!
4A/	4D\	.	.	4a 4f#/	.	4dd\	.	4D\	-ſiſ	.	2.ryy	4f#\	-ſis	.	4dd\	-ſiſ	.	2.ryy	4d\	.	4f#\	.	4ff#\	.	4aa\	.	4ff#\	.	4ddd\	.
4A/	4AA/	.	.	4r	.	4r	.	4r	.	.	.	4r	.	.	4r	.	.	.	4d\	.	4f#\	.	4dd\	.	4ff#\	.	4ff#\	.	4ddd\	.
4F#/	4FF#/	.	.	4a 4f#/	.	4ddd\	.	4r	.	.	.	4r	.	.	4r	.	.	.	4d\	.	4f#\	.	4dd\	.	4ff#\	.	4ff#\	.	4ddd\	.
*v	*v	*	*	*	*	*	*	*	*	*	*	*	*	*	*	*	*	*	*	*	*	*	*	*	*	*	*	*	*	*
!	!	!	!	!	!	!	!	!	!	!	!LO:LB:g=original	!	!	!	!	!	!	!	!	!	!	!	!	!	!	!LO:LB:g=original	!	!	!
=77	=77	=77	=77	=77	=77	=77	=77	=77	=77	=77	=77	=77	=77	=77	=77	=77	=77	=77	=77	=77	=77	=77	=77	=77	=77	=77	=77	=77	=77
*	*	*	*^	*	*	*	*	*	*	*	*	*	*	*	*	*	*	*	*	*	*	*	*	*	*	*	*	*	*
!	!	!	!	!	!	!	!	!LO:TX:t=P:problem=brak taktu	!	!	!	!	!	!	!	!	!	!	!LO:MO:mod=2d	!	!	!	!	!	!	!	!	!	!	!
2D 2DD/	.	.	2a/	2f#\	.	2dd\	.	2.ryy	.	.	2.ryy	2.r	.	.	2.r	.	.	2.ryy	4d\	.	2f#\	.	2dd\	.	2ff#\	.	2ff#\	.	2ddd\	.
!	!	!	!	!	!	!	!	!	!	!	!	!	!	!	!	!	!	!	!LO:MO:mod=.	!	!	!	!	!	!	!	!	!	!	!
.	.	.	.	.	.	.	.	.	.	.	.	.	.	.	.	.	.	.	4r	.	.	.	.	.	.	.	.	.	.	.
4r	.	.	4r	4ryy	.	4r	.	.	.	.	.	.	.	.	.	.	.	.	4r	.	4r	.	4r	.	4r	.	4r	.	4r	.
*	*	*	*v	*v	*	*	*	*	*	*	*	*	*	*	*	*	*	*	*	*	*	*	*	*	*	*	*	*	*	*
==	==	==	==	==	==	==	==	==	==	==	==	==	==	==	==	==	==	==	==	==	==	==	==	==	==	==	==	==	==
*-	*-	*-	*-	*-	*-	*-	*-	*-	*-	*-	*-	*-	*-	*-	*-	*-	*-	*-	*-	*-	*-	*-	*-	*-	*-	*-	*-	*-	*-
!!!system-decoration: [(g1)][(g2)][g3][(g4)]<s14>
!!!RDF**kern: > = above
!!!RDF**kern: | = vertical stroke
!!!ENC: Katarzyna Serwa
!!!END: 2020-09-30
!!!ENC: Marta Lawrence
!!!END: 2022-02-02
!!!ENC-modern: Andrzej Kubiczek
!!!END-modern: 2022-12-07
!!!filter-modern: shed -e "s/^custos:/Xcustos:/I" | shed -e "s/^(X?)rep$/$1REP/I" | shed -e "s/^(\d+[\/\\]right)/$1yy/I" | shed -e "s/(LO:DY.*):t=(.*$)/$1:T=$2/L; s/LO:DY(.*)(:a)(.*)/LO:dy$1$2$3/L; s/LO:DY(.*)(:b)(.*)/LO:dy$1$2$3/L" | shed -e "s/TX(.*):t=P:/tx$1:t=P:/LG" | shed -k -e "s/([^a-gA-Gn#X-])[<>]/$1/g" | shed -e "s/:rj/:RJ/L" | sic -sq | modori -m | autostem -r | tie -s | humtr -p | shed -e "s/yy//"
!!!YEC: Copyright 2022 Narodowy Instytut Fryderyka Chopina (https://polishscores.org)
!!!YEM: License CC-BY-4.0 (https://creativecommons.org/licenses/by/4.0)
